(Projekt Deckel)
(Erstellt mit Estlcam 2.5D Version 7 Build 7,623)
(Fraesrichtung: Gleichlauf)
(Nullpunkt: Auf Teileoberseite)
(Maximale Fraestiefe: 8,00mm)
(Verwendete Werkzeuge:)
(Fraeser 1)

G90
G91.1
M03
G00 Z5.0000

(Nr. 1 Ausschnitt 5)
G00 X158.2000 Y58.2500
G00 Z0.5000
G01 Z-2.5000 F100 S24000
G01 X178.7532 F500
G01 Y59.7500
G01 X158.2000
G01 Y61.2500
G01 X178.7532
G00 Z5.0000
G00 X158.0000 Y57.5000
G00 Z0.5000
G01 Z-2.5000 F100
G01 X178.9532 F500
G01 Y62.0000
G01 X158.0000
G01 Y57.5000
G00 Z5.0000

(Nr. 2 Ausschnitt 4)
G00 Y58.5083
G00 Z0.5000
G01 Z-4.0000 F100
G01 X175.0000 F500
G01 Y61.0083
G01 X158.0000
G01 Y58.5083
G01 Z-8.0000 F100
G01 X175.0000 F500
G01 Y61.0083
G01 X158.0000
G01 Y58.5083
G00 Z5.0000

(Nr. 3 Ausschnitt 6)
G00 X158.2000 Y120.2500
G00 Z0.5000
G01 Z-2.5000 F100
G01 X178.7532 F500
G01 Y121.7500
G01 X158.2000
G01 Y123.2500
G01 X178.7532
G00 Z5.0000
G00 X158.0000 Y119.5000
G00 Z0.5000
G01 Z-2.5000 F100
G01 X178.9532 F500
G01 Y124.0000
G01 X158.0000
G01 Y119.5000
G00 Z5.0000

(Nr. 4 Ausschnitt 3)
G00 Y120.5083
G00 Z0.5000
G01 Z-4.0000 F100
G01 X175.0000 F500
G01 Y123.0083
G01 X158.0000
G01 Y120.5083
G01 Z-8.0000 F100
G01 X175.0000 F500
G01 Y123.0083
G01 X158.0000
G01 Y120.5083
G00 Z5.0000

(Nr. 5 Ausschnitt 7)
G00 X158.2000 Y182.7500
G00 Z0.5000
G01 Z-2.5000 F100
G01 X178.7532 F500
G01 Y184.2500
G01 X158.2000
G01 Y185.7500
G01 X178.7532
G00 Z5.0000
G00 X158.0000 Y182.0000
G00 Z0.5000
G01 Z-2.5000 F100
G01 X178.9532 F500
G01 Y186.5000
G01 X158.0000
G01 Y182.0000
G00 Z5.0000

(Nr. 6 Ausschnitt 2)
G00 Y182.9917
G00 Z0.5000
G01 Z-4.0000 F100
G01 X175.0000 F500
G01 Y185.4917
G01 X158.0000
G01 Y182.9917
G01 Z-8.0000 F100
G01 X175.0000 F500
G01 Y185.4917
G01 X158.0000
G01 Y182.9917
G00 Z5.0000

(Nr. 7 Ausschnitt 8)
G00 X158.2000 Y244.7500
G00 Z0.5000
G01 Z-2.5000 F100
G01 X178.7532 F500
G01 Y246.2500
G01 X158.2000
G01 Y247.7500
G01 X178.7532
G00 Z5.0000
G00 X158.0000 Y244.0000
G00 Z0.5000
G01 Z-2.5000 F100
G01 X178.9532 F500
G01 Y248.5000
G01 X158.0000
G01 Y244.0000
G00 Z5.0000

(Nr. 8 Ausschnitt 1)
G00 Y244.9917
G00 Z0.5000
G01 Z-4.0000 F100
G01 X175.0000 F500
G01 Y247.4917
G01 X158.0000
G01 Y244.9917
G01 Z-8.0000 F100
G01 X175.0000 F500
G01 Y247.4917
G01 X158.0000
G01 Y244.9917
G00 Z5.0000

(Nr. 9 Gravur 5)
G00 X362.0000 Y269.9917
G00 Z0.5000
G01 Z-4.0000 F100
G01 Y261.9698 F500
G01 X361.9836 Y261.6986
G01 X361.9690 Y261.5787
G01 X361.9255 Y261.3411
G01 X361.8966 Y261.2239
G01 X361.8247 Y260.9933
G01 X361.7819 Y260.8804
G01 X361.6828 Y260.6602
G01 X361.6468 Y260.5881
G01 X361.5017 Y260.3466
G01 X361.4331 Y260.2472
G01 X361.2842 Y260.0571
G01 X361.2041 Y259.9667
G01 X361.0334 Y259.7959
G01 X360.9742 Y259.7413
G01 X360.7528 Y259.5669
G01 X360.6875 Y259.5198
G01 X360.4468 Y259.3734
G01 X360.3763 Y259.3345
G01 X360.1196 Y259.2181
G01 X360.0067 Y259.1753
G01 X359.7761 Y259.1034
G01 X359.6589 Y259.0745
G01 X359.4213 Y259.0310
G01 X359.3015 Y259.0164
G01 X359.0302 Y259.0000
G01 X347.5075
G01 X347.3105 Y258.9983
G03 Y256.0060 I0.0886 J-1.4961
G01 X347.5075 Y256.0043
G01 X359.0302 Y256.0044
G01 X359.3015 Y255.9880
G01 X359.3816 Y255.9799
G01 X359.6589 Y255.9299
G01 X359.7761 Y255.9010
G01 X360.0067 Y255.8291
G01 X360.0826 Y255.8021
G01 X360.3399 Y255.6872
G01 X360.4468 Y255.6311
G01 X360.6535 Y255.5061
G01 X360.7528 Y255.4375
G01 X360.9430 Y255.2886
G01 X361.0334 Y255.2085
G01 X361.2041 Y255.0377
G01 X361.2842 Y254.9473
G01 X361.4331 Y254.7572
G01 X361.4802 Y254.6919
G01 X361.6267 Y254.4511
G01 X361.6656 Y254.3806
G01 X361.7819 Y254.1240
G01 X361.8248 Y254.0111
G01 X361.8966 Y253.7805
G01 X361.9255 Y253.6633
G01 X361.9690 Y253.4257
G01 X361.9803 Y253.3460
G01 X362.0000 Y253.0346
G01 Y239.9917
G00 Z5.0000
G00 Y269.9917
G00 Z-3.5000
G01 Z-8.0000 F100
G01 Y261.9698 F500
G01 X361.9836 Y261.6986
G01 X361.9690 Y261.5787
G01 X361.9255 Y261.3411
G01 X361.8966 Y261.2239
G01 X361.8247 Y260.9933
G01 X361.7819 Y260.8804
G01 X361.6828 Y260.6602
G01 X361.6468 Y260.5881
G01 X361.5017 Y260.3466
G01 X361.4331 Y260.2472
G01 X361.2842 Y260.0571
G01 X361.2041 Y259.9667
G01 X361.0334 Y259.7959
G01 X360.9742 Y259.7413
G01 X360.7528 Y259.5669
G01 X360.6875 Y259.5198
G01 X360.4468 Y259.3734
G01 X360.3763 Y259.3345
G01 X360.1196 Y259.2181
G01 X360.0067 Y259.1753
G01 X359.7761 Y259.1034
G01 X359.6589 Y259.0745
G01 X359.4213 Y259.0310
G01 X359.3015 Y259.0164
G01 X359.0302 Y259.0000
G01 X347.5075
G01 X347.3105 Y258.9983
G03 Y256.0060 I0.0886 J-1.4961
G01 X347.5075 Y256.0043
G01 X359.0302 Y256.0044
G01 X359.3015 Y255.9880
G01 X359.3816 Y255.9799
G01 X359.6589 Y255.9299
G01 X359.7761 Y255.9010
G01 X360.0067 Y255.8291
G01 X360.0826 Y255.8021
G01 X360.3399 Y255.6872
G01 X360.4468 Y255.6311
G01 X360.6535 Y255.5061
G01 X360.7528 Y255.4375
G01 X360.9430 Y255.2886
G01 X361.0334 Y255.2085
G01 X361.2041 Y255.0377
G01 X361.2842 Y254.9473
G01 X361.4331 Y254.7572
G01 X361.4802 Y254.6919
G01 X361.6267 Y254.4511
G01 X361.6656 Y254.3806
G01 X361.7819 Y254.1240
G01 X361.8248 Y254.0111
G01 X361.8966 Y253.7805
G01 X361.9255 Y253.6633
G01 X361.9690 Y253.4257
G01 X361.9803 Y253.3460
G01 X362.0000 Y253.0346
G01 Y239.9917
G00 Z5.0000

(Nr. 10 Gravur 6)
G00 Y189.9917
G00 Z0.5000
G01 Z-4.0000 F100
G01 Y176.9698 F500
G01 X361.9836 Y176.6985
G01 X361.9755 Y176.6184
G01 X361.9255 Y176.3411
G01 X361.8966 Y176.2239
G01 X361.8248 Y175.9933
G01 X361.7819 Y175.8804
G01 X361.6828 Y175.6601
G01 X361.6267 Y175.5532
G01 X361.5017 Y175.3465
G01 X361.4573 Y175.2793
G01 X361.2842 Y175.0570
G01 X361.2320 Y174.9957
G01 X361.0334 Y174.7959
G01 X360.9430 Y174.7158
G01 X360.7528 Y174.5668
G01 X360.6875 Y174.5198
G01 X360.4468 Y174.3733
G01 X360.3399 Y174.3172
G01 X360.1196 Y174.2181
G01 X360.0067 Y174.1752
G01 X359.7761 Y174.1034
G01 X359.6589 Y174.0745
G01 X359.4213 Y174.0310
G01 X359.3416 Y174.0197
G01 X359.0302 Y174.0000
G01 X350.0000
G03 X350.0084 Y146.0000 I0.0001 J-14.0000
G01 X359.0302
G01 X359.3015 Y145.9836
G01 X359.3816 Y145.9755
G01 X359.6589 Y145.9255
G01 X359.7761 Y145.8966
G01 X360.0067 Y145.8248
G01 X360.0826 Y145.7977
G01 X360.3399 Y145.6828
G01 X360.4468 Y145.6267
G01 X360.6535 Y145.5018
G01 X360.7528 Y145.4332
G01 X360.9430 Y145.2842
G01 X361.0334 Y145.2041
G01 X361.2041 Y145.0334
G01 X361.2842 Y144.9430
G01 X361.4331 Y144.7529
G01 X361.4802 Y144.6875
G01 X361.6267 Y144.4468
G01 X361.6656 Y144.3763
G01 X361.7819 Y144.1196
G01 X361.8248 Y144.0067
G01 X361.8966 Y143.7761
G01 X361.9255 Y143.6589
G01 X361.9690 Y143.4213
G01 X361.9803 Y143.3416
G01 X362.0000 Y143.0302
G01 Y129.9917
G00 Z5.0000
G00 Y189.9917
G00 Z-3.5000
G01 Z-8.0000 F100
G01 Y176.9698 F500
G01 X361.9836 Y176.6985
G01 X361.9755 Y176.6184
G01 X361.9255 Y176.3411
G01 X361.8966 Y176.2239
G01 X361.8248 Y175.9933
G01 X361.7819 Y175.8804
G01 X361.6828 Y175.6601
G01 X361.6267 Y175.5532
G01 X361.5017 Y175.3465
G01 X361.4573 Y175.2793
G01 X361.2842 Y175.0570
G01 X361.2320 Y174.9957
G01 X361.0334 Y174.7959
G01 X360.9430 Y174.7158
G01 X360.7528 Y174.5668
G01 X360.6875 Y174.5198
G01 X360.4468 Y174.3733
G01 X360.3399 Y174.3172
G01 X360.1196 Y174.2181
G01 X360.0067 Y174.1752
G01 X359.7761 Y174.1034
G01 X359.6589 Y174.0745
G01 X359.4213 Y174.0310
G01 X359.3416 Y174.0197
G01 X359.0302 Y174.0000
G01 X350.0000
G03 X350.0084 Y146.0000 I0.0001 J-14.0000
G01 X359.0302
G01 X359.3015 Y145.9836
G01 X359.3816 Y145.9755
G01 X359.6589 Y145.9255
G01 X359.7761 Y145.8966
G01 X360.0067 Y145.8248
G01 X360.0826 Y145.7977
G01 X360.3399 Y145.6828
G01 X360.4468 Y145.6267
G01 X360.6535 Y145.5018
G01 X360.7528 Y145.4332
G01 X360.9430 Y145.2842
G01 X361.0334 Y145.2041
G01 X361.2041 Y145.0334
G01 X361.2842 Y144.9430
G01 X361.4331 Y144.7529
G01 X361.4802 Y144.6875
G01 X361.6267 Y144.4468
G01 X361.6656 Y144.3763
G01 X361.7819 Y144.1196
G01 X361.8248 Y144.0067
G01 X361.8966 Y143.7761
G01 X361.9255 Y143.6589
G01 X361.9690 Y143.4213
G01 X361.9803 Y143.3416
G01 X362.0000 Y143.0302
G01 Y129.9917
G00 Z5.0000
G00 X0.0000 Y0.0000

M05
M30
