(Projekt Zusammenfassung OK 7mm Teil 1)
(Erstellt mit Estlcam 2.5D Version 7 Build 7,623)
(Fraesrichtung: Gleichlauf)
(Nullpunkt: Auf Teileoberseite)
(Maximale Fraestiefe: 7,00mm)
(Verwendete Werkzeuge:)
(Fraeser 1)

G90
G91.1
M03
G00 Z5.0000

(Nr. 1 Ausschnitt 3)
G00 X101.0000 Y203.4246
G00 Z0.5000
G01 Z-3.5000 F100 S24000
G01 Y185.5000 F500
G01 X119.5000
G01 Y224.0000
G01 X114.2500
G02 X113.2522 Y224.9337 I0.0000 J1.0000
G01 X113.2436 Y225.1883
G03 X107.2564 I-2.9936 J-0.1883
G01 X107.2495 Y224.9686
G02 X106.2850 Y224.0006 I-0.9995 J0.0314
G01 X101.0000 Y224.0000
G01 Y207.4246
G00 Z0.0000
G01 Y203.4246
G00 Z-3.0000
G01 Z-7.0000 F100
G01 Y185.5000 F500
G01 X119.5000
G01 Y224.0000
G01 X114.2500
G02 X113.2522 Y224.9337 I0.0000 J1.0000
G01 X113.2436 Y225.1883
G03 X107.2564 I-2.9936 J-0.1883
G01 X107.2495 Y224.9686
G02 X106.2850 Y224.0006 I-0.9995 J0.0314
G01 X101.0000 Y224.0000
G01 Y207.4246
G00 Z0.0000
G01 Y203.4246
G00 Z5.0000

(Nr. 2 Ausschnitt 1)
G00 X201.0000 Y251.0000
G00 Z0.5000
G01 Z-3.5000 F100
G01 X399.0000 F500
G01 Y299.0000
G01 X201.0000
G01 Y251.0000
G01 Z-7.0000 F100
G01 X399.0000 F500
G01 Y299.0000
G01 X201.0000
G01 Y251.0000
G00 Z5.0000

(Nr. 3 gravur)
G00 X280.0000 Y190.0000
G00 Z0.5000
G01 Z-1.0000 F100
G01 Y170.0000 F500
G01 X288.8889
G00 Z5.0000

(Nr. 4 gravur)
G00 X295.5555
G00 Z0.5000
G01 Z-1.0000 F100
G01 X302.2222 F500
G03 X306.6667 Y174.4444 I0.0000 J4.4444
G01 Y185.5556
G03 X302.2222 Y190.0000 I-4.4444 J0.0000
G01 X295.5555
G01 Y170.0000
G00 Z5.0000

(Nr. 5 gravur)
G00 X313.3333 Y190.0000
G00 Z0.5000
G01 Z-1.0000 F100
G01 X320.0000 Y170.0000 F500
G01 X326.6667 Y190.0000
G00 Z5.0000

(Nr. 6 Kreistasche 1)
G00 X300.9000 Y230.0000
G00 Z0.5000
G03 X299.5500 Y230.7794 Z0.3333 I-0.9000 J0.0000 F100
G03 Y229.2206 Z0.1667 I0.4500 J-0.7794
G03 X300.9000 Y230.0000 Z0.0000 I0.4500 J0.7794
G03 X299.5500 Y230.7794 I-0.9000 J0.0000
G03 Y229.2206 I0.4500 J-0.7794
G03 X300.9000 Y230.0000 I0.4500 J0.7794
G03 X299.5500 Y230.7794 Z-1.1667 I-0.9000 J0.0000
G03 Y229.2206 Z-2.3333 I0.4500 J-0.7794
G03 X300.9000 Y230.0000 Z-3.5000 I0.4500 J0.7794
G03 X299.5500 Y230.7794 I-0.9000 J0.0000
G03 Y229.2206 I0.4500 J-0.7794
G03 X300.9000 Y230.0000 I0.4500 J0.7794
G03 X300.9181 Y230.3803 I-0.8915 J0.2330 F500
G03 X300.7690 Y230.7690 I-1.0040 J-0.1622
G03 X300.4520 Y231.0913 I-0.9351 J-0.6024
G03 X300.0000 Y231.2750 I-0.6711 J-1.0037
G03 X299.4762 Y231.2646 I-0.2365 J-1.2804
G03 X298.9747 Y231.0253 I0.3379 J-1.3535
G03 X299.6247 Y228.5994 I1.0253 J-1.0253
G03 X301.4006 Y230.3753 I0.3753 J1.4006
G03 X298.9747 Y231.0253 I-1.4006 J-0.3753
G00 X300.9000 Y230.0000
G03 X299.5500 Y230.7794 Z-4.6667 I-0.9000 J0.0000 F100
G03 Y229.2206 Z-5.8333 I0.4500 J-0.7794
G03 X300.9000 Y230.0000 Z-7.0000 I0.4500 J0.7794
G03 X299.5500 Y230.7794 I-0.9000 J0.0000
G03 Y229.2206 I0.4500 J-0.7794
G03 X300.9000 Y230.0000 I0.4500 J0.7794
G03 X300.9181 Y230.3803 I-0.8915 J0.2330 F500
G03 X300.7690 Y230.7690 I-1.0040 J-0.1622
G03 X300.4520 Y231.0913 I-0.9351 J-0.6024
G03 X300.0000 Y231.2750 I-0.6711 J-1.0037
G03 X299.4762 Y231.2646 I-0.2365 J-1.2804
G03 X298.9747 Y231.0253 I0.3379 J-1.3535
G03 X299.6247 Y228.5994 I1.0253 J-1.0253
G03 X301.4006 Y230.3753 I0.3753 J1.4006
G03 X298.9747 Y231.0253 I-1.4006 J-0.3753
G00 Z5.0000

(Nr. 7 Ausschnitt 2)
G00 X41.0000 Y307.2526
G00 Z0.5000
G01 Z-3.5000 F100
G01 Y291.5000 F500
G01 X59.5000
G01 Y330.0000
G01 X41.0000
G01 Y311.2526
G00 Z0.0000
G01 Y307.2526
G00 Z-3.0000
G01 Z-7.0000 F100
G01 Y291.5000 F500
G01 X59.5000
G01 Y330.0000
G01 X41.0000
G01 Y311.2526
G00 Z0.0000
G01 Y307.2526
G00 Z5.0000

(Nr. 8 Teil 14)
G00 X29.0000 Y309.6469
G00 Z0.5000
G01 Z-3.5000 F100
G01 Y341.0000 F500
G02 X30.0000 Y342.0000 I1.0000 J0.0000
G01 X70.0000
G02 X71.0000 Y341.0000 I0.0000 J-1.0000
G01 Y309.4165
G00 Z0.0000
G01 Y305.4165
G01 Z-3.5000 F100
G01 Y271.0000 F500
G02 X70.0000 Y270.0000 I-1.0000 J0.0000
G01 X30.0000
G02 X29.0000 Y271.0000 I0.0000 J1.0000
G01 Y305.6469
G00 Z0.0000
G01 Y309.6469
G00 Z-3.0000
G01 Z-7.0000 F100
G01 Y341.0000 F500
G02 X30.0000 Y342.0000 I1.0000 J0.0000
G01 X70.0000
G02 X71.0000 Y341.0000 I0.0000 J-1.0000
G01 Y309.4165
G00 Z0.0000
G01 Y305.4165
G00 Z-3.0000
G01 Z-7.0000 F100
G01 Y271.0000 F500
G02 X70.0000 Y270.0000 I-1.0000 J0.0000
G01 X30.0000
G02 X29.0000 Y271.0000 I0.0000 J1.0000
G01 Y305.6469
G00 Z0.0000
G01 Y309.6469
G00 Z5.0000

(Nr. 9 Teil 6)
G00 X40.2155 Y261.3480
G00 Z0.5000
G01 Z-3.5000 F100
G01 X52.2268 F500
G02 X53.2268 Y260.3480 I0.0000 J-1.0000
G01 Y230.3480
G02 X52.2268 Y229.3480 I-1.0000 J0.0000
G01 X36.4612
G00 Z0.0000
G01 X32.4612
G01 Z-3.5000 F100
G01 X22.2268 F500
G02 X21.2268 Y230.3480 I0.0000 J1.0000
G01 Y260.3480
G02 X22.2268 Y261.3480 I1.0000 J0.0000
G01 X36.2155
G00 Z0.0000
G01 X40.2155
G00 Z-3.0000
G01 Z-7.0000 F100
G01 X52.2268 F500
G02 X53.2268 Y260.3480 I0.0000 J-1.0000
G01 Y230.3480
G02 X52.2268 Y229.3480 I-1.0000 J0.0000
G01 X36.4612
G00 Z0.0000
G01 X32.4612
G00 Z-3.0000
G01 Z-7.0000 F100
G01 X22.2268 F500
G02 X21.2268 Y230.3480 I0.0000 J1.0000
G01 Y260.3480
G02 X22.2268 Y261.3480 I1.0000 J0.0000
G01 X36.2155
G00 Z0.0000
G01 X40.2155
G00 Z5.0000

(Nr. 10 Teil 7)
G00 X69.2197 Y231.9985
G00 Z0.5000
G01 Z-3.5000 F100
G01 X82.3046 Y245.0831 F500
G02 X83.9868 Y244.3519 I0.6822 J-0.7312
G01 Y214.3519
G02 X82.9868 Y213.3519 I-1.0000 J0.0000
G01 X52.9522 Y213.3525
G02 X52.2797 Y215.0590 I0.0346 J0.9994
G01 X66.3912 Y229.1701
G00 Z0.0000
G01 X69.2197 Y231.9985
G00 Z-3.0000
G01 Z-7.0000 F100
G01 X82.3046 Y245.0831 F500
G02 X83.9868 Y244.3519 I0.6822 J-0.7312
G01 Y214.3519
G02 X82.9868 Y213.3519 I-1.0000 J0.0000
G01 X52.9522 Y213.3525
G02 X52.2797 Y215.0590 I0.0346 J0.9994
G01 X66.3912 Y229.1701
G00 Z0.0000
G01 X69.2197 Y231.9985
G00 Z5.0000

(Nr. 11 Teil 18)
G00 X131.0000 Y198.0980
G00 Z0.5000
G01 Z-3.5000 F100
G01 Y165.0000 F500
G02 X130.0000 Y164.0000 I-1.0000 J0.0000
G01 X90.0000
G02 X89.0000 Y165.0000 I0.0000 J1.0000
G01 Y202.9952
G00 Z0.0000
G01 Y206.9952
G01 Z-3.5000 F100
G01 Y235.0000 F500
G02 X90.0000 Y236.0000 I1.0000 J0.0000
G01 X130.0000
G02 X131.0000 Y235.0000 I0.0000 J-1.0000
G01 Y202.0980
G00 Z0.0000
G01 Y198.0980
G00 Z-3.0000
G01 Z-7.0000 F100
G01 Y165.0000 F500
G02 X130.0000 Y164.0000 I-1.0000 J0.0000
G01 X90.0000
G02 X89.0000 Y165.0000 I0.0000 J1.0000
G01 Y202.9952
G00 Z0.0000
G01 Y206.9952
G00 Z-3.0000
G01 Z-7.0000 F100
G01 Y235.0000 F500
G02 X90.0000 Y236.0000 I1.0000 J0.0000
G01 X130.0000
G02 X131.0000 Y235.0000 I0.0000 J-1.0000
G01 Y202.0980
G00 Z0.0000
G01 Y198.0980
G00 Z5.0000

(Nr. 12 Teil 8)
G00 X19.0000 Y199.0805
G00 Z0.5000
G01 Z-3.5000 F100
G01 Y210.0000 F500
G02 X20.0000 Y211.0000 I1.0000 J0.0000
G01 X50.0000
G02 X51.0000 Y210.0000 I0.0000 J-1.0000
G01 Y195.4936
G00 Z0.0000
G01 Y191.4936
G01 Z-3.5000 F100
G01 Y180.0000 F500
G02 X50.0000 Y179.0000 I-1.0000 J0.0000
G01 X20.0000
G02 X19.0000 Y180.0000 I0.0000 J1.0000
G01 Y195.0805
G00 Z0.0000
G01 Y199.0805
G00 Z-3.0000
G01 Z-7.0000 F100
G01 Y210.0000 F500
G02 X20.0000 Y211.0000 I1.0000 J0.0000
G01 X50.0000
G02 X51.0000 Y210.0000 I0.0000 J-1.0000
G01 Y195.4936
G00 Z0.0000
G01 Y191.4936
G00 Z-3.0000
G01 Z-7.0000 F100
G01 Y180.0000 F500
G02 X50.0000 Y179.0000 I-1.0000 J0.0000
G01 X20.0000
G02 X19.0000 Y180.0000 I0.0000 J1.0000
G01 Y195.0805
G00 Z0.0000
G01 Y199.0805
G00 Z5.0000

(Nr. 13 Teil 9)
G00 X56.0072 Y152.3874
G00 Z0.5000
G01 Z-3.5000 F100
G01 Y181.3344 F500
G02 X57.0072 Y182.3344 I1.0000 J0.0000
G01 X72.0072
G02 X73.0072 Y181.3344 I0.0000 J-1.0000
G01 Y151.1209
G00 Z0.0000
G01 Y147.1209
G01 Z-3.5000 F100
G01 Y111.3343 F500
G02 X72.0072 Y110.3343 I-1.0000 J0.0000
G01 X57.0072
G02 X56.0072 Y111.3343 I0.0000 J1.0000
G01 Y148.3874
G00 Z0.0000
G01 Y152.3874
G00 Z-3.0000
G01 Z-7.0000 F100
G01 Y181.3344 F500
G02 X57.0072 Y182.3344 I1.0000 J0.0000
G01 X72.0072
G02 X73.0072 Y181.3344 I0.0000 J-1.0000
G01 Y151.1209
G00 Z0.0000
G01 Y147.1209
G00 Z-3.0000
G01 Z-7.0000 F100
G01 Y111.3343 F500
G02 X72.0072 Y110.3343 I-1.0000 J0.0000
G01 X57.0072
G02 X56.0072 Y111.3343 I0.0000 J1.0000
G01 Y148.3874
G00 Z0.0000
G01 Y152.3874
G00 Z5.0000

(Nr. 14 Teil 10)
G00 X19.0000 Y149.1920
G00 Z0.5000
G01 Z-3.5000 F100
G01 Y160.0000 F500
G02 X20.0000 Y161.0000 I1.0000 J0.0000
G01 X35.0000
G02 X36.0000 Y160.0000 I0.0000 J-1.0000
G01 Y140.0000
G01 X50.0000
G02 X51.0000 Y139.0000 I0.0000 J-1.0000
G01 Y130.0000
G02 X50.0000 Y129.0000 I-1.0000 J0.0000
G01 X20.0000
G02 X19.0000 Y130.0000 I0.0000 J1.0000
G01 Y145.1920
G00 Z0.0000
G01 Y149.1920
G00 Z-3.0000
G01 Z-7.0000 F100
G01 Y160.0000 F500
G02 X20.0000 Y161.0000 I1.0000 J0.0000
G01 X35.0000
G02 X36.0000 Y160.0000 I0.0000 J-1.0000
G01 Y140.0000
G01 X50.0000
G02 X51.0000 Y139.0000 I0.0000 J-1.0000
G01 Y130.0000
G02 X50.0000 Y129.0000 I-1.0000 J0.0000
G01 X20.0000
G02 X19.0000 Y130.0000 I0.0000 J1.0000
G01 Y145.1920
G00 Z0.0000
G01 Y149.1920
G00 Z5.0000

(Nr. 15 Teil 11)
G00 Y106.8006
G00 Z0.5000
G01 Z-3.5000 F100
G01 Y120.0000 F500
G02 X20.0000 Y121.0000 I1.0000 J0.0000
G01 X35.0000
G02 X36.0000 Y120.0000 I0.0000 J-1.0000
G01 Y100.0000
G01 X50.0000
G02 X51.0000 Y99.0000 I0.0000 J-1.0000
G01 Y90.0000
G02 X50.0000 Y89.0000 I-1.0000 J0.0000
G01 X20.0000
G02 X19.0000 Y90.0000 I0.0000 J1.0000
G01 Y102.8006
G00 Z0.0000
G01 Y106.8006
G00 Z-3.0000
G01 Z-7.0000 F100
G01 Y120.0000 F500
G02 X20.0000 Y121.0000 I1.0000 J0.0000
G01 X35.0000
G02 X36.0000 Y120.0000 I0.0000 J-1.0000
G01 Y100.0000
G01 X50.0000
G02 X51.0000 Y99.0000 I0.0000 J-1.0000
G01 Y90.0000
G02 X50.0000 Y89.0000 I-1.0000 J0.0000
G01 X20.0000
G02 X19.0000 Y90.0000 I0.0000 J1.0000
G01 Y102.8006
G00 Z0.0000
G01 Y106.8006
G00 Z5.0000

(Nr. 16 Teil 13)
G00 Y57.3849
G00 Z0.5000
G01 Z-3.5000 F100
G01 Y70.0000 F500
G02 X20.0000 Y71.0000 I1.0000 J0.0000
G01 X35.0000
G02 X36.0000 Y70.0000 I0.0000 J-1.0000
G01 Y50.0000
G01 X50.0000
G02 X51.0000 Y49.0000 I0.0000 J-1.0000
G01 Y40.0000
G02 X50.0000 Y39.0000 I-1.0000 J0.0000
G01 X20.0000
G02 X19.0000 Y40.0000 I0.0000 J1.0000
G01 Y53.3849
G00 Z0.0000
G01 Y57.3849
G00 Z-3.0000
G01 Z-7.0000 F100
G01 Y70.0000 F500
G02 X20.0000 Y71.0000 I1.0000 J0.0000
G01 X35.0000
G02 X36.0000 Y70.0000 I0.0000 J-1.0000
G01 Y50.0000
G01 X50.0000
G02 X51.0000 Y49.0000 I0.0000 J-1.0000
G01 Y40.0000
G02 X50.0000 Y39.0000 I-1.0000 J0.0000
G01 X20.0000
G02 X19.0000 Y40.0000 I0.0000 J1.0000
G01 Y53.3849
G00 Z0.0000
G01 Y57.3849
G00 Z5.0000

(Nr. 17 Teil 12)
G00 X63.9228 Y80.6022
G00 Z0.5000
G01 Z-3.5000 F100
G01 X77.7571 Y94.4361 F500
G02 X79.4393 Y93.7049 I0.6822 J-0.7312
G01 Y63.7049
G02 X78.4393 Y62.7049 I-1.0000 J0.0000
G01 X48.4046 Y62.7055
G02 X47.7322 Y64.4120 I0.0346 J0.9994
G01 X61.0943 Y77.7738
G00 Z0.0000
G01 X63.9228 Y80.6022
G00 Z-3.0000
G01 Z-7.0000 F100
G01 X77.7571 Y94.4361 F500
G02 X79.4393 Y93.7049 I0.6822 J-0.7312
G01 Y63.7049
G02 X78.4393 Y62.7049 I-1.0000 J0.0000
G01 X48.4046 Y62.7055
G02 X47.7322 Y64.4120 I0.0346 J0.9994
G01 X61.0943 Y77.7738
G00 Z0.0000
G01 X63.9228 Y80.6022
G00 Z5.0000

(Nr. 18 Teil 17)
G00 X115.1573 Y60.8041
G00 Z0.5000
G01 Z-3.5000 F100
G01 X100.7526 Y44.3415 F500
G02 X100.0000 Y44.0000 I-0.7526 J0.6585
G01 X90.0000
G02 X89.0000 Y45.0000 I0.0000 J1.0000
G01 Y76.4489
G00 Z0.0000
G01 Y80.4489
G01 Z-3.5000 F100
G01 Y95.0000 F500
G02 X90.0000 Y96.0000 I1.0000 J0.0000
G01 X135.0000
G02 X136.0000 Y95.0000 I0.0000 J-1.0000
G01 X135.9994 Y84.9658
G02 X135.7526 Y84.3415 I-0.9994 J0.0342
G01 X117.7913 Y63.8144
G00 Z0.0000
G01 X115.1573 Y60.8041
G00 Z-3.0000
G01 Z-7.0000 F100
G01 X100.7526 Y44.3415 F500
G02 X100.0000 Y44.0000 I-0.7526 J0.6585
G01 X90.0000
G02 X89.0000 Y45.0000 I0.0000 J1.0000
G01 Y76.4489
G00 Z0.0000
G01 Y80.4489
G00 Z-3.0000
G01 Z-7.0000 F100
G01 Y95.0000 F500
G02 X90.0000 Y96.0000 I1.0000 J0.0000
G01 X135.0000
G02 X136.0000 Y95.0000 I0.0000 J-1.0000
G01 X135.9994 Y84.9658
G02 X135.7526 Y84.3415 I-0.9994 J0.0342
G01 X117.7913 Y63.8144
G00 Z0.0000
G01 X115.1573 Y60.8041
G00 Z5.0000

(Nr. 19 Teil 16)
G00 X89.0000 Y132.6076
G00 Z0.5000
G01 Z-3.5000 F100
G01 Y155.0000 F500
G02 X90.0000 Y156.0000 I1.0000 J0.0000
G01 X100.0000
G02 X100.7526 Y155.6585 I0.0000 J-1.0000
G01 X116.7692 Y137.3534
G00 Z0.0000
G01 X119.4032 Y134.3430
G01 Z-3.5000 F100
G01 X135.7747 Y115.6324 F500
G02 X136.0000 Y115.0000 I-0.7747 J-0.6324
G01 Y105.0000
G02 X135.0000 Y104.0000 I-1.0000 J0.0000
G01 X90.0000
G02 X89.0000 Y105.0000 I0.0000 J1.0000
G01 Y128.6076
G00 Z0.0000
G01 Y132.6076
G00 Z-3.0000
G01 Z-7.0000 F100
G01 Y155.0000 F500
G02 X90.0000 Y156.0000 I1.0000 J0.0000
G01 X100.0000
G02 X100.7526 Y155.6585 I0.0000 J-1.0000
G01 X116.7692 Y137.3534
G00 Z0.0000
G01 X119.4032 Y134.3430
G00 Z-3.0000
G01 Z-7.0000 F100
G01 X135.7747 Y115.6324 F500
G02 X136.0000 Y115.0000 I-0.7747 J-0.6324
G01 Y105.0000
G02 X135.0000 Y104.0000 I-1.0000 J0.0000
G01 X90.0000
G02 X89.0000 Y105.0000 I0.0000 J1.0000
G01 Y128.6076
G00 Z0.0000
G01 Y132.6076
G00 Z5.0000

(Nr. 20 Teil 2)
G00 X149.0000 Y175.8829
G00 Z0.5000
G01 Z-3.5000 F100
G01 Y190.0000 F500
G02 X150.0000 Y191.0000 I1.0000 J0.0000
G01 X156.0000
G01 Y239.0000
G01 X150.0000
G02 X149.0000 Y240.0000 I0.0000 J1.0000
G01 Y340.0000
G02 X150.0000 Y341.0000 I1.0000 J0.0000
G01 X327.1786
G00 Z0.0000
G01 X331.1786
G01 Z-3.5000 F100
G01 X450.0000 F500
G02 X451.0000 Y340.0000 I0.0000 J-1.0000
G01 Y240.0000
G02 X450.0000 Y239.0000 I-1.0000 J0.0000
G01 X444.0000
G01 Y191.0000
G01 X450.0000
G02 X451.0000 Y190.0000 I0.0000 J-1.0000
G01 Y170.7416
G00 Z0.0000
G01 Y166.7416
G01 Z-3.5000 F100
G01 Y140.0000 F500
G02 X450.0000 Y139.0000 I-1.0000 J0.0000
G01 X444.0000
G01 Y91.0000
G01 X450.0000
G02 X451.0000 Y90.0000 I0.0000 J-1.0000
G01 Y47.0000
G02 X450.0000 Y46.0000 I-1.0000 J0.0000
G01 X401.0000
G01 Y40.0000
G02 X400.0000 Y39.0000 I-1.0000 J0.0000
G01 X350.0000
G02 X349.0000 Y40.0000 I0.0000 J1.0000
G01 Y46.0000
G01 X251.0000
G01 Y40.0000
G02 X250.0000 Y39.0000 I-1.0000 J0.0000
G01 X237.7358
G00 Z0.0000
G01 X233.7359
G01 Z-3.5000 F100
G01 X200.0000 F500
G02 X199.0000 Y40.0000 I0.0000 J1.0000
G01 Y46.0000
G01 X150.0000
G02 X149.0000 Y47.0000 I0.0000 J1.0000
G01 Y90.0000
G02 X150.0000 Y91.0000 I1.0000 J0.0000
G01 X156.0000
G01 Y139.0000
G01 X150.0000
G02 X149.0000 Y140.0000 I0.0000 J1.0000
G01 Y171.8829
G00 Z0.0000
G01 Y175.8829
G00 Z-3.0000
G01 Z-7.0000 F100
G01 Y190.0000 F500
G02 X150.0000 Y191.0000 I1.0000 J0.0000
G01 X156.0000
G01 Y239.0000
G01 X150.0000
G02 X149.0000 Y240.0000 I0.0000 J1.0000
G01 Y340.0000
G02 X150.0000 Y341.0000 I1.0000 J0.0000
G01 X327.1786
G00 Z0.0000
G01 X331.1786
G00 Z-3.0000
G01 Z-7.0000 F100
G01 X450.0000 F500
G02 X451.0000 Y340.0000 I0.0000 J-1.0000
G01 Y240.0000
G02 X450.0000 Y239.0000 I-1.0000 J0.0000
G01 X444.0000
G01 Y191.0000
G01 X450.0000
G02 X451.0000 Y190.0000 I0.0000 J-1.0000
G01 Y170.7416
G00 Z0.0000
G01 Y166.7416
G00 Z-3.0000
G01 Z-7.0000 F100
G01 Y140.0000 F500
G02 X450.0000 Y139.0000 I-1.0000 J0.0000
G01 X444.0000
G01 Y91.0000
G01 X450.0000
G02 X451.0000 Y90.0000 I0.0000 J-1.0000
G01 Y47.0000
G02 X450.0000 Y46.0000 I-1.0000 J0.0000
G01 X401.0000
G01 Y40.0000
G02 X400.0000 Y39.0000 I-1.0000 J0.0000
G01 X350.0000
G02 X349.0000 Y40.0000 I0.0000 J1.0000
G01 Y46.0000
G01 X251.0000
G01 Y40.0000
G02 X250.0000 Y39.0000 I-1.0000 J0.0000
G01 X237.7358
G00 Z0.0000
G01 X233.7359
G00 Z-3.0000
G01 Z-7.0000 F100
G01 X200.0000 F500
G02 X199.0000 Y40.0000 I0.0000 J1.0000
G01 Y46.0000
G01 X150.0000
G02 X149.0000 Y47.0000 I0.0000 J1.0000
G01 Y90.0000
G02 X150.0000 Y91.0000 I1.0000 J0.0000
G01 X156.0000
G01 Y139.0000
G01 X150.0000
G02 X149.0000 Y140.0000 I0.0000 J1.0000
G01 Y171.8829
G00 Z0.0000
G01 Y175.8829
G00 Z5.0000

(Nr. 21 Teil 15)
G00 X89.0000 Y289.2744
G00 Z0.5000
G01 Z-3.5000 F100
G01 Y325.0000 F500
G02 X90.0000 Y326.0000 I1.0000 J0.0000
G01 X130.0000
G02 X131.0000 Y325.0000 I0.0000 J-1.0000
G01 Y288.2396
G00 Z0.0000
G01 Y284.2396
G01 Z-3.5000 F100
G01 Y245.0000 F500
G02 X130.0000 Y244.0000 I-1.0000 J0.0000
G01 X90.0000
G02 X89.0000 Y245.0000 I0.0000 J1.0000
G01 Y285.2744
G00 Z0.0000
G01 Y289.2744
G00 Z-3.0000
G01 Z-7.0000 F100
G01 Y325.0000 F500
G02 X90.0000 Y326.0000 I1.0000 J0.0000
G01 X130.0000
G02 X131.0000 Y325.0000 I0.0000 J-1.0000
G01 Y288.2396
G00 Z0.0000
G01 Y284.2396
G00 Z-3.0000
G01 Z-7.0000 F100
G01 Y245.0000 F500
G02 X130.0000 Y244.0000 I-1.0000 J0.0000
G01 X90.0000
G02 X89.0000 Y245.0000 I0.0000 J1.0000
G01 Y285.2744
G00 Z0.0000
G01 Y289.2744
G00 Z5.0000

(Nr. 22 Teil 5)
G00 X608.7701 Y341.0000
G00 Z0.5000
G01 Z-3.5000 F100
G01 X660.0000 F500
G02 X661.0000 Y340.0000 I0.0000 J-1.0000
G01 Y334.0000
G01 X709.0000
G01 Y340.0000
G02 X710.0000 Y341.0000 I1.0000 J0.0000
G01 X760.0000
G02 X761.0000 Y340.0000 I0.0000 J-1.0000
G01 Y290.0000
G02 X760.0000 Y289.0000 I-1.0000 J0.0000
G01 X754.0000
G01 Y241.0000
G01 X760.0000
G02 X761.0000 Y240.0000 I0.0000 J-1.0000
G01 Y204.9114
G00 Z0.0000
G01 Y200.9113
G01 Z-3.5000 F100
G01 Y140.0000 F500
G02 X760.0000 Y139.0000 I-1.0000 J0.0000
G01 X754.0000
G01 Y91.0000
G01 X760.0000
G02 X761.0000 Y90.0000 I0.0000 J-1.0000
G01 Y40.0000
G02 X760.0000 Y39.0000 I-1.0000 J0.0000
G01 X617.8813
G00 Z0.0000
G01 X613.8813
G01 Z-3.5000 F100
G01 X460.0000 F500
G02 X459.0000 Y40.0000 I0.0000 J1.0000
G01 Y90.0000
G02 X460.0000 Y91.0000 I1.0000 J0.0000
G01 X466.0000
G01 Y139.0000
G01 X460.0000
G02 X459.0000 Y140.0000 I0.0000 J1.0000
G01 Y175.5356
G00 Z0.0000
G01 Y179.5356
G01 Z-3.5000 F100
G01 Y240.0000 F500
G02 X460.0000 Y241.0000 I1.0000 J0.0000
G01 X466.0000
G01 Y289.0000
G01 X460.0000
G02 X459.0000 Y290.0000 I0.0000 J1.0000
G01 Y340.0000
G02 X460.0000 Y341.0000 I1.0000 J0.0000
G01 X510.0000
G02 X511.0000 Y340.0000 I0.0000 J-1.0000
G01 Y334.0000
G01 X559.0000
G01 Y340.0000
G02 X560.0000 Y341.0000 I1.0000 J0.0000
G01 X604.7701
G00 Z0.0000
G01 X608.7701
G00 Z-3.0000
G01 Z-7.0000 F100
G01 X660.0000 F500
G02 X661.0000 Y340.0000 I0.0000 J-1.0000
G01 Y334.0000
G01 X709.0000
G01 Y340.0000
G02 X710.0000 Y341.0000 I1.0000 J0.0000
G01 X760.0000
G02 X761.0000 Y340.0000 I0.0000 J-1.0000
G01 Y290.0000
G02 X760.0000 Y289.0000 I-1.0000 J0.0000
G01 X754.0000
G01 Y241.0000
G01 X760.0000
G02 X761.0000 Y240.0000 I0.0000 J-1.0000
G01 Y204.9114
G00 Z0.0000
G01 Y200.9113
G00 Z-3.0000
G01 Z-7.0000 F100
G01 Y140.0000 F500
G02 X760.0000 Y139.0000 I-1.0000 J0.0000
G01 X754.0000
G01 Y91.0000
G01 X760.0000
G02 X761.0000 Y90.0000 I0.0000 J-1.0000
G01 Y40.0000
G02 X760.0000 Y39.0000 I-1.0000 J0.0000
G01 X617.8813
G00 Z0.0000
G01 X613.8813
G00 Z-3.0000
G01 Z-7.0000 F100
G01 X460.0000 F500
G02 X459.0000 Y40.0000 I0.0000 J1.0000
G01 Y90.0000
G02 X460.0000 Y91.0000 I1.0000 J0.0000
G01 X466.0000
G01 Y139.0000
G01 X460.0000
G02 X459.0000 Y140.0000 I0.0000 J1.0000
G01 Y175.5356
G00 Z0.0000
G01 Y179.5356
G00 Z-3.0000
G01 Z-7.0000 F100
G01 Y240.0000 F500
G02 X460.0000 Y241.0000 I1.0000 J0.0000
G01 X466.0000
G01 Y289.0000
G01 X460.0000
G02 X459.0000 Y290.0000 I0.0000 J1.0000
G01 Y340.0000
G02 X460.0000 Y341.0000 I1.0000 J0.0000
G01 X510.0000
G02 X511.0000 Y340.0000 I0.0000 J-1.0000
G01 Y334.0000
G01 X559.0000
G01 Y340.0000
G02 X560.0000 Y341.0000 I1.0000 J0.0000
G01 X604.7701
G00 Z0.0000
G01 X608.7701
G00 Z5.0000
G00 X0.0000 Y0.0000

M05
M30
