(Projekt Zusammenfassung OK 7mm Teil 2)
(Erstellt mit Estlcam 2.5D Version 7 Build 7,623)
(Fraesrichtung: Gleichlauf)
(Nullpunkt: Auf Teileoberseite)
(Maximale Fraestiefe: 7,00mm)
(Verwendete Werkzeuge:)
(Fraeser 1)

G90
G91.1
M03
G00 Z5.0000

(Nr. 1 Teil 1)
G00 X372.0000 Y191.5154
G00 Z0.5000
G01 Z-3.5000 F100 S24000
G01 Y41.0000 F500
G02 X371.0000 Y40.0000 I-1.0000 J0.0000
G01 X195.3954
G00 Z0.0000
G01 X191.3954
G01 Z-3.5000 F100
G01 X20.0000 F500
G02 X19.0000 Y41.0000 I0.0000 J1.0000
G01 Y194.8326
G00 Z0.0000
G01 Y198.8326
G01 Z-3.5000 F100
G01 Y327.0000 F500
G02 X20.0000 Y328.0000 I1.0000 J0.0000
G01 X190.7922
G00 Z0.0000
G01 X194.7922
G01 Z-3.5000 F100
G01 X371.0000 F500
G02 X372.0000 Y327.0000 I0.0000 J-1.0000
G01 Y195.5155
G00 Z0.0000
G01 Y191.5154
G00 Z-3.0000
G01 Z-7.0000 F100
G01 Y41.0000 F500
G02 X371.0000 Y40.0000 I-1.0000 J0.0000
G01 X195.3954
G00 Z0.0000
G01 X191.3954
G00 Z-3.0000
G01 Z-7.0000 F100
G01 X20.0000 F500
G02 X19.0000 Y41.0000 I0.0000 J1.0000
G01 Y194.8326
G00 Z0.0000
G01 Y198.8326
G00 Z-3.0000
G01 Z-7.0000 F100
G01 Y327.0000 F500
G02 X20.0000 Y328.0000 I1.0000 J0.0000
G01 X190.7922
G00 Z0.0000
G01 X194.7922
G00 Z-3.0000
G01 Z-7.0000 F100
G01 X371.0000 F500
G02 X372.0000 Y327.0000 I0.0000 J-1.0000
G01 Y195.5155
G00 Z0.0000
G01 Y191.5154
G00 Z5.0000

(Nr. 2 Teil 3)
G00 X489.1625 Y181.9205
G00 Z0.5000
G01 Z-3.5000 F100
G01 X394.3153 Y37.9390 F500
G02 X392.5000 Y38.5181 I-0.8153 J0.5790
G01 Y87.5000
G01 X386.5000
G02 X385.5000 Y88.5000 I0.0000 J1.0000
G01 Y138.5000
G02 X386.5000 Y139.5000 I1.0000 J0.0000
G01 X392.5000
G01 Y237.5000
G01 X386.5000
G02 X385.5000 Y238.5000 I0.0000 J1.0000
G01 Y259.8271
G00 Z0.0000
G01 Y263.8271
G01 Z-3.5000 F100
G01 Y288.5000 F500
G02 X386.5000 Y289.5000 I1.0000 J0.0000
G01 X392.5000
G01 Y331.5000
G02 X393.5000 Y332.5000 I1.0000 J0.0000
G01 X435.5000
G01 Y338.5000
G02 X436.5000 Y339.5000 I1.0000 J0.0000
G01 X462.1003
G00 Z0.0000
G01 X466.1003
G01 Z-3.5000 F100
G01 X486.5000 F500
G02 X487.5000 Y338.5000 I0.0000 J-1.0000
G01 Y332.5000
G01 X535.5000
G01 Y338.5000
G02 X536.5000 Y339.5000 I1.0000 J0.0000
G01 X586.5000
G02 X587.5000 Y338.5000 I0.0000 J-1.0000
G01 Y331.5000
G02 X587.3351 Y330.9499 I-1.0000 J0.0000
G01 X491.3630 Y185.2608
G00 Z0.0000
G01 X489.1625 Y181.9205
G00 Z-3.0000
G01 Z-7.0000 F100
G01 X394.3153 Y37.9390 F500
G02 X392.5000 Y38.5181 I-0.8153 J0.5790
G01 Y87.5000
G01 X386.5000
G02 X385.5000 Y88.5000 I0.0000 J1.0000
G01 Y138.5000
G02 X386.5000 Y139.5000 I1.0000 J0.0000
G01 X392.5000
G01 Y237.5000
G01 X386.5000
G02 X385.5000 Y238.5000 I0.0000 J1.0000
G01 Y259.8271
G00 Z0.0000
G01 Y263.8271
G00 Z-3.0000
G01 Z-7.0000 F100
G01 Y288.5000 F500
G02 X386.5000 Y289.5000 I1.0000 J0.0000
G01 X392.5000
G01 Y331.5000
G02 X393.5000 Y332.5000 I1.0000 J0.0000
G01 X435.5000
G01 Y338.5000
G02 X436.5000 Y339.5000 I1.0000 J0.0000
G01 X462.1003
G00 Z0.0000
G01 X466.1003
G00 Z-3.0000
G01 Z-7.0000 F100
G01 X486.5000 F500
G02 X487.5000 Y338.5000 I0.0000 J-1.0000
G01 Y332.5000
G01 X535.5000
G01 Y338.5000
G02 X536.5000 Y339.5000 I1.0000 J0.0000
G01 X586.5000
G02 X587.5000 Y338.5000 I0.0000 J-1.0000
G01 Y331.5000
G02 X587.3351 Y330.9499 I-1.0000 J0.0000
G01 X491.3630 Y185.2608
G00 Z0.0000
G01 X489.1625 Y181.9205
G00 Z5.0000

(Nr. 3 Teil 4)
G00 X617.5000 Y263.4654
G00 Z0.5000
G01 Z-3.5000 F100
G01 Y238.5000 F500
G02 X616.5000 Y237.5000 I-1.0000 J0.0000
G01 X610.5000
G01 Y139.5000
G01 X616.5000
G02 X617.5000 Y138.5000 I0.0000 J-1.0000
G01 Y88.5000
G02 X616.5000 Y87.5000 I-1.0000 J0.0000
G01 X610.5000
G01 Y45.5000
G02 X609.5000 Y44.5000 I-1.0000 J0.0000
G01 X567.5000
G01 Y38.5000
G02 X566.5000 Y37.5000 I-1.0000 J0.0000
G01 X527.4457
G00 Z0.0000
G01 X523.4457
G01 Z-3.5000 F100
G01 X516.5000 F500
G02 X515.5000 Y38.5000 I0.0000 J1.0000
G01 Y44.5000
G01 X467.5000
G01 Y38.5000
G02 X466.5000 Y37.5000 I-1.0000 J0.0000
G01 X416.5000
G02 X415.5000 Y38.5000 I0.0000 J1.0000
G01 Y45.5000
G02 X415.6649 Y46.0501 I1.0000 J0.0000
G01 X497.6799 Y170.5518
G00 Z0.0000
G01 X499.8804 Y173.8921
G01 Z-3.5000 F100
G01 X608.6847 Y339.0610 F500
G02 X610.5000 Y338.4819 I0.8153 J-0.5790
G01 Y289.5000
G01 X616.5000
G02 X617.5000 Y288.5000 I0.0000 J-1.0000
G01 Y267.4654
G00 Z0.0000
G01 Y263.4654
G00 Z-3.0000
G01 Z-7.0000 F100
G01 Y238.5000 F500
G02 X616.5000 Y237.5000 I-1.0000 J0.0000
G01 X610.5000
G01 Y139.5000
G01 X616.5000
G02 X617.5000 Y138.5000 I0.0000 J-1.0000
G01 Y88.5000
G02 X616.5000 Y87.5000 I-1.0000 J0.0000
G01 X610.5000
G01 Y45.5000
G02 X609.5000 Y44.5000 I-1.0000 J0.0000
G01 X567.5000
G01 Y38.5000
G02 X566.5000 Y37.5000 I-1.0000 J0.0000
G01 X527.4457
G00 Z0.0000
G01 X523.4457
G00 Z-3.0000
G01 Z-7.0000 F100
G01 X516.5000 F500
G02 X515.5000 Y38.5000 I0.0000 J1.0000
G01 Y44.5000
G01 X467.5000
G01 Y38.5000
G02 X466.5000 Y37.5000 I-1.0000 J0.0000
G01 X416.5000
G02 X415.5000 Y38.5000 I0.0000 J1.0000
G01 Y45.5000
G02 X415.6649 Y46.0501 I1.0000 J0.0000
G01 X497.6799 Y170.5518
G00 Z0.0000
G01 X499.8804 Y173.8921
G00 Z-3.0000
G01 Z-7.0000 F100
G01 X608.6847 Y339.0610 F500
G02 X610.5000 Y338.4819 I0.8153 J-0.5790
G01 Y289.5000
G01 X616.5000
G02 X617.5000 Y288.5000 I0.0000 J-1.0000
G01 Y267.4654
G00 Z0.0000
G01 Y263.4654
G00 Z5.0000

(Nr. 4 gravur)
G00 X498.3889 Y247.0000
G00 Z0.5000
G01 Z-1.0000 F100
G01 X501.5000 Y254.0000 F500
G00 Z5.0000

(Nr. 5 gravur)
G00 X496.0555
G00 Z0.5000
G01 Z-1.0000 F100
G01 Y247.0000 F500
G00 Z5.0000

(Nr. 6 gravur)
G00 X503.8412 Y252.2299
G00 Z0.5000
G01 Z-1.0000 F100
G01 X503.8333 Y252.0555 F500
G01 Y248.9445
G03 X507.7222 I1.9445 J0.0000
G01 Y252.0555
G03 X503.8412 Y252.2299 I-1.9445 J0.0001
G00 Z5.0000

(Nr. 7 gravur)
G00 X487.1208 Y250.2853
G00 Z0.5000
G01 Z-1.0000 F100
G01 X487.1111 Y250.1111 F500
G01 Y248.5555
G03 X490.2222 I1.5555 J0.0000
G01 Y250.1111
G03 X487.1208 Y250.2853 I-1.5555 J0.0000
G00 Z5.0000

(Nr. 8 gravur)
G00 X482.4445 Y251.6667
G00 Z0.5000
G01 Z-1.0000 F100
G01 X484.7778 F500
G00 Z5.0000

(Nr. 9 gravur)
G00 X483.2222 Y254.0000
G00 Z0.5000
G01 Z-1.0000 F100
G01 Y247.0000 F500
G00 Z5.0000

(Nr. 10 gravur)
G00 X477.0000 Y251.6667
G00 Z0.5000
G01 Z-1.0000 F100
G01 Y248.1667 F500
G03 X478.1667 Y247.0000 I1.1665 J-0.0001
G01 X480.1111
G01 Y251.6667
G00 Z5.0000

(Nr. 11 gravur)
G00 X470.6482 Y248.9445
G00 Z0.5000
G01 Z-1.0000 F100
G01 X474.0186 F500
G00 Z5.0000

(Nr. 12 gravur)
G00 X470.0000 Y247.0000
G00 Z0.5000
G01 Z-1.0000 F100
G01 X472.3333 Y254.0000 F500
G01 X474.6667 Y247.0000
G00 Z5.0000

(Nr. 13 Kreistasche 8)
G00 X460.9000
G00 Z0.5000
G03 X459.5500 Y247.7794 Z0.3333 I-0.9000 J0.0000 F100
G03 Y246.2206 Z0.1667 I0.4500 J-0.7794
G03 X460.9000 Y247.0000 Z0.0000 I0.4500 J0.7794
G03 X459.5500 Y247.7794 I-0.9000 J0.0000
G03 Y246.2206 I0.4500 J-0.7794
G03 X460.9000 Y247.0000 I0.4500 J0.7794
G03 X459.5500 Y247.7794 Z-1.1667 I-0.9000 J0.0000
G03 Y246.2206 Z-2.3333 I0.4500 J-0.7794
G03 X460.9000 Y247.0000 Z-3.5000 I0.4500 J0.7794
G03 X459.5500 Y247.7794 I-0.9000 J0.0000
G03 Y246.2206 I0.4500 J-0.7794
G03 X460.9000 Y247.0000 I0.4500 J0.7794
G03 X460.9181 Y247.3803 I-0.8922 J0.2330 F500
G03 X460.7689 Y247.7690 I-1.0037 J-0.1621
G03 X460.4520 Y248.0913 I-0.9342 J-0.6014
G03 X460.0000 Y248.2750 I-0.6710 J-1.0035
G03 X459.4762 Y248.2646 I-0.2365 J-1.2804
G03 X458.9658 Y248.0341 I0.3080 J-1.3627
G03 X458.6141 Y247.5740 I0.9766 J-1.1107
G03 X460.1958 Y245.5128 I1.3859 J-0.5740
G03 X461.1901 Y247.9132 I-0.1958 J1.4872
G03 X458.6141 Y247.5740 I-1.1901 J-0.9132
G00 X460.9000 Y247.0000
G03 X459.5500 Y247.7794 Z-4.6667 I-0.9000 J0.0000 F100
G03 Y246.2206 Z-5.8333 I0.4500 J-0.7794
G03 X460.9000 Y247.0000 Z-7.0000 I0.4500 J0.7794
G03 X459.5500 Y247.7794 I-0.9000 J0.0000
G03 Y246.2206 I0.4500 J-0.7794
G03 X460.9000 Y247.0000 I0.4500 J0.7794
G03 X460.9181 Y247.3803 I-0.8922 J0.2330 F500
G03 X460.7689 Y247.7690 I-1.0037 J-0.1621
G03 X460.4520 Y248.0913 I-0.9342 J-0.6014
G03 X460.0000 Y248.2750 I-0.6710 J-1.0035
G03 X459.4762 Y248.2646 I-0.2365 J-1.2804
G03 X458.9658 Y248.0341 I0.3080 J-1.3627
G03 X458.6141 Y247.5740 I0.9766 J-1.1107
G03 X460.1958 Y245.5128 I1.3859 J-0.5740
G03 X461.1901 Y247.9132 I-0.1958 J1.4872
G03 X458.6141 Y247.5740 I-1.1901 J-0.9132
G00 Z5.0000

(Nr. 14 Kreistasche 17)
G00 X460.9000 Y267.0000
G00 Z0.5000
G03 X459.5500 Y267.7794 Z0.3333 I-0.9000 J0.0000 F100
G03 Y266.2206 Z0.1667 I0.4500 J-0.7794
G03 X460.9000 Y267.0000 Z0.0000 I0.4500 J0.7794
G03 X459.5500 Y267.7794 I-0.9000 J0.0000
G03 Y266.2206 I0.4500 J-0.7794
G03 X460.9000 Y267.0000 I0.4500 J0.7794
G03 X459.5500 Y267.7794 Z-1.1667 I-0.9000 J0.0000
G03 Y266.2206 Z-2.3333 I0.4500 J-0.7794
G03 X460.9000 Y267.0000 Z-3.5000 I0.4500 J0.7794
G03 X459.5500 Y267.7794 I-0.9000 J0.0000
G03 Y266.2206 I0.4500 J-0.7794
G03 X460.9000 Y267.0000 I0.4500 J0.7794
G03 X460.9181 Y267.3803 I-0.8922 J0.2330 F500
G03 X460.7689 Y267.7690 I-1.0037 J-0.1621
G03 X460.4520 Y268.0913 I-0.9342 J-0.6014
G03 X460.0000 Y268.2750 I-0.6710 J-1.0035
G03 X459.4762 Y268.2646 I-0.2365 J-1.2804
G03 X458.9658 Y268.0341 I0.3080 J-1.3627
G03 X458.6141 Y267.5740 I0.9766 J-1.1107
G03 X460.1958 Y265.5128 I1.3859 J-0.5740
G03 X461.1901 Y267.9131 I-0.1958 J1.4872
G03 X458.6141 Y267.5740 I-1.1901 J-0.9132
G00 X460.9000 Y267.0000
G03 X459.5500 Y267.7794 Z-4.6667 I-0.9000 J0.0000 F100
G03 Y266.2206 Z-5.8333 I0.4500 J-0.7794
G03 X460.9000 Y267.0000 Z-7.0000 I0.4500 J0.7794
G03 X459.5500 Y267.7794 I-0.9000 J0.0000
G03 Y266.2206 I0.4500 J-0.7794
G03 X460.9000 Y267.0000 I0.4500 J0.7794
G03 X460.9181 Y267.3803 I-0.8922 J0.2330 F500
G03 X460.7689 Y267.7690 I-1.0037 J-0.1621
G03 X460.4520 Y268.0913 I-0.9342 J-0.6014
G03 X460.0000 Y268.2750 I-0.6710 J-1.0035
G03 X459.4762 Y268.2646 I-0.2365 J-1.2804
G03 X458.9658 Y268.0341 I0.3080 J-1.3627
G03 X458.6141 Y267.5740 I0.9766 J-1.1107
G03 X460.1958 Y265.5128 I1.3859 J-0.5740
G03 X461.1901 Y267.9131 I-0.1958 J1.4872
G03 X458.6141 Y267.5740 I-1.1901 J-0.9132
G00 Z5.0000

(Nr. 15 gravur)
G00 X470.0000 Y267.0000
G00 Z0.5000
G01 Z-1.0000 F100
G01 X472.3333 Y274.0000 F500
G01 X474.6667 Y267.0000
G00 Z5.0000

(Nr. 16 gravur)
G00 X470.6482 Y268.9445
G00 Z0.5000
G01 Z-1.0000 F100
G01 X474.0186 F500
G00 Z5.0000

(Nr. 17 gravur)
G00 X477.0000 Y271.6667
G00 Z0.5000
G01 Z-1.0000 F100
G01 Y268.1667 F500
G03 X478.1667 Y267.0000 I1.1665 J-0.0001
G01 X480.1111
G01 Y271.6667
G00 Z5.0000

(Nr. 18 gravur)
G00 X482.4445
G00 Z0.5000
G01 Z-1.0000 F100
G01 X484.7778 F500
G00 Z5.0000

(Nr. 19 gravur)
G00 X483.2222 Y274.0000
G00 Z0.5000
G01 Z-1.0000 F100
G01 Y267.0000 F500
G00 Z5.0000

(Nr. 20 gravur)
G00 X487.1208 Y270.2853
G00 Z0.5000
G01 Z-1.0000 F100
G01 X487.1111 Y270.1111 F500
G01 Y268.5555
G03 X490.2222 I1.5555 J0.0000
G01 Y270.1111
G03 X487.1208 Y270.2853 I-1.5555 J0.0000
G00 Z5.0000

(Nr. 21 gravur)
G00 X496.0555 Y274.0000
G00 Z0.5000
G01 Z-1.0000 F100
G01 X499.9445 F500
G01 X496.0555 Y267.0000
G01 X499.9445
G00 Z5.0000

(Nr. 22 gravur)
G00 X502.2778 Y271.6667
G00 Z0.5000
G01 Z-1.0000 F100
G01 Y268.1667 F500
G03 X503.4445 Y267.0000 I1.1665 J-0.0001
G01 X505.3889
G01 Y271.6667
G00 Z5.0000

(Nr. 23 gravur)
G00 X510.4460 Y271.2778
G00 Z0.5000
G01 Z-1.0000 F100
G03 X508.5222 Y271.6516 I-1.6973 J-3.5972 F500
G01 X508.3538 Y271.6057
G01 X508.1963 Y271.5303
G01 X508.0549 Y271.4280
G01 X507.9341 Y271.3021
G01 X507.8376 Y271.1565
G01 X507.7690 Y270.9960
G01 X507.7300 Y270.8259
G01 X507.7222 Y270.6515
G01 X507.7457 Y270.4785
G01 X507.7998 Y270.3126
G01 X507.8827 Y270.1589
G01 X507.9917 Y270.0226
G01 X508.1234 Y269.9081
G01 X508.2734 Y269.8189
G01 X510.2854 Y268.8478
G01 X510.4349 Y268.7582
G01 X510.5660 Y268.6435
G01 X510.6746 Y268.5072
G01 X510.7571 Y268.3537
G01 X510.8108 Y268.1880
G01 X510.8340 Y268.0153
G01 X510.8262 Y267.8412
G01 X510.7874 Y267.6714
G01 X510.7188 Y267.5112
G01 X510.6227 Y267.3658
G01 X510.5022 Y267.2399
G01 X510.3613 Y267.1375
G01 X510.2043 Y267.0620
G01 X510.0364 Y267.0156
G02 X507.7239 Y267.3889 I-0.2606 J5.7350
G00 Z5.0000

(Nr. 24 gravur)
G00 X513.1683 Y271.6667
G00 Z0.5000
G01 Z-1.0000 F100
G01 X515.5017 F500
G00 Z5.0000

(Nr. 25 gravur)
G00 X513.9460 Y274.0000
G00 Z0.5000
G01 Z-1.0000 F100
G01 Y267.0000 F500
G00 Z5.0000

(Nr. 26 gravur)
G00 X520.9429 Y269.3333
G00 Z0.5000
G01 Z-1.0000 F100
G01 X518.9984 F500
G03 Y267.0000 I0.0000 J-1.1667
G01 X520.9429
G01 Y270.5000
G03 X519.7761 Y271.6667 I-1.1666 J0.0001
G01 X518.2207
G00 Z5.0000

(Nr. 27 gravur)
G00 X523.2761 Y267.0000
G00 Z0.5000
G01 Z-1.0000 F100
G01 Y271.6667 F500
G01 X525.2207
G02 X526.3872 Y270.5000 I-0.0001 J-1.1667
G01 X526.3873 Y267.0000
G00 Z5.0000

(Nr. 28 gravur)
G00 X531.8318 Y274.0000
G00 Z0.5000
G01 Z-1.0000 F100
G01 Y267.0000 F500
G01 X529.8872
G02 X528.7207 Y268.1667 I0.0000 J1.1666
G01 Y270.5000
G02 X529.8872 Y271.6667 I1.1666 J0.0001
G01 X531.8318
G01 Y267.0000
G00 Z5.0000

(Nr. 29 gravur)
G00 X531.8333 Y287.0000
G00 Z0.5000
G01 Z-1.0000 F100
G01 Y292.8333 F500
G02 X533.0000 Y294.0000 I1.1667 J-0.0001
G01 X533.3889
G00 Z5.0000

(Nr. 30 gravur)
G00 X531.0555 Y291.6667
G00 Z0.5000
G01 Z-1.0000 F100
G01 X533.3889 F500
G00 Z5.0000

(Nr. 31 gravur)
G00 X526.3906 Y287.0000
G00 Z0.5000
G01 Z-1.0000 F100
G01 Y291.6667 F500
G01 X528.7239
G01 Y290.8889
G00 Z5.0000

(Nr. 32 gravur)
G00 X520.9460 Y291.6667
G00 Z0.5000
G01 Z-1.0000 F100
G01 Y288.1667 F500
G03 X522.1128 Y287.0000 I1.1667 J0.0001
G01 X524.0573
G01 Y291.6667
G00 Z5.0000

(Nr. 33 gravur)
G00 X513.9460
G00 Z0.5000
G01 Z-1.0000 F100
G01 X515.1128 Y287.0000 F500
G01 X516.2794 Y290.1111
G01 X517.4460 Y287.0000
G01 X518.6128 Y291.6667
G00 Z5.0000

(Nr. 34 gravur)
G00 X508.5017 Y287.0000
G00 Z0.5000
G01 Z-1.0000 F100
G01 Y291.6667 F500
G01 X510.4460
G02 X511.6128 Y290.5000 I0.0001 J-1.1667
G01 Y287.0000
G00 Z5.0000

(Nr. 35 gravur)
G00 X503.8350
G00 Z0.5000
G01 Z-1.0000 F100
G01 X500.7239 F500
G01 Y294.0000
G01 X503.8350
G00 Z5.0000

(Nr. 36 gravur)
G00 X500.7239 Y290.8889
G00 Z0.5000
G01 Z-1.0000 F100
G01 X503.0571 F500
G00 Z5.0000

(Nr. 37 gravur)
G00 X506.1683 Y291.6667
G00 Z0.5000
G01 Z-1.0000 F100
G01 Y287.0000 F500
G00 Z5.0000

(Nr. 38 bohrung)
G00 Y293.6111
G00 Z0.5000
G01 Z-1.0000 F100
G00 Z5.0000

(Nr. 39 gravur)
G00 X506.9460 Y304.6667
G00 Z0.5000
G01 Z-1.0000
G01 X507.7239 F500
G01 X510.0571 Y311.6667
G00 Z5.0000

(Nr. 40 gravur)
G00 X506.9460
G00 Z0.5000
G01 Z-1.0000 F100
G01 X508.5017 Y307.0000 F500
G00 Z5.0000

(Nr. 41 gravur)
G00 X504.2239 Y313.6111
G00 Z0.5000
G01 Z-1.0000 F100
G03 X501.9362 Y313.9617 I-1.8187 J-4.2283 F500
G03 X501.5728 Y311.0587 I0.3431 J-1.5172
G01 X503.7639 Y309.9413
G02 X502.7239 Y307.0143 I-0.7219 J-1.3918
G02 X500.7239 Y307.7778 I0.3334 J3.8747
G00 Z5.0000

(Nr. 42 gravur)
G00 X493.3350 Y314.0000
G00 Z0.5000
G01 Z-1.0000 F100
G01 Y307.0000 F500
G00 Z5.0000

(Nr. 43 gravur)
G00 X492.5573 Y311.6667
G00 Z0.5000
G01 Z-1.0000 F100
G01 X494.8906 F500
G00 Z5.0000

(Nr. 44 gravur)
G00 X487.1128 Y309.3333
G00 Z0.5000
G01 Z-1.0000 F100
G01 X490.2239 F500
G01 Y310.1111
G03 X487.1128 I-1.5555 J0.0001
G01 Y308.1667
G03 X488.2795 Y307.0000 I1.1665 J-0.0001
G01 X490.2239
G00 Z5.0000

(Nr. 45 gravur)
G00 X484.3906 Y311.2778
G00 Z0.5000
G01 Z-1.0000 F100
G03 X482.4667 Y311.6516 I-1.6976 J-3.5988 F500
G01 X482.2983 Y311.6057
G01 X482.1409 Y311.5303
G01 X481.9993 Y311.4280
G01 X481.8784 Y311.3021
G01 X481.7822 Y311.1565
G01 X481.7134 Y310.9960
G01 X481.6746 Y310.8259
G01 X481.6667 Y310.6515
G01 X481.6902 Y310.4785
G01 X481.7441 Y310.3126
G01 X481.8271 Y310.1589
G01 X481.9362 Y310.0226
G01 X482.0679 Y309.9081
G01 X482.2179 Y309.8189
G01 X484.2299 Y308.8478
G01 X484.3794 Y308.7582
G01 X484.5105 Y308.6435
G01 X484.6190 Y308.5072
G01 X484.7014 Y308.3537
G01 X484.7551 Y308.1880
G01 X484.7786 Y308.0153
G01 X484.7705 Y307.8412
G01 X484.7317 Y307.6714
G01 X484.6632 Y307.5112
G01 X484.5671 Y307.3658
G01 X484.4468 Y307.2399
G01 X484.3057 Y307.1375
G01 X484.1487 Y307.0620
G01 X483.9807 Y307.0156
G02 X481.6683 Y307.3889 I-0.2606 J5.7339
G00 Z5.0000

(Nr. 46 gravur)
G00 X476.2222 Y309.3333
G00 Z0.5000
G01 Z-1.0000 F100
G01 X479.3333 F500
G01 Y310.1111
G03 X476.2222 I-1.5555 J0.0001
G01 Y308.1667
G03 X477.3889 Y307.0000 I1.1667 J0.0001
G01 X479.3333
G00 Z5.0000

(Nr. 47 gravur)
G00 X472.3164 Y310.1480
G00 Z0.5000
G01 Z-1.0000 F100
G01 X473.8889 Y307.0000 F500
G00 Z5.0000

(Nr. 48 gravur)
G00 X470.0000
G00 Z0.5000
G01 Z-1.0000 F100
G01 Y314.0000 F500
G01 X471.9445
G02 X472.3164 Y310.1480 I0.0005 J-1.9439
G01 X472.2916 Y310.1423
G01 X471.9445 Y310.1111
G01 X470.0000
G00 Z5.0000

(Nr. 49 Kreistasche 4)
G00 X460.9000 Y307.0000
G00 Z0.5000
G03 X459.5500 Y307.7794 Z0.3333 I-0.9000 J0.0000 F100
G03 Y306.2206 Z0.1667 I0.4500 J-0.7794
G03 X460.9000 Y307.0000 Z0.0000 I0.4500 J0.7794
G03 X459.5500 Y307.7794 I-0.9000 J0.0000
G03 Y306.2206 I0.4500 J-0.7794
G03 X460.9000 Y307.0000 I0.4500 J0.7794
G03 X459.5500 Y307.7794 Z-1.1667 I-0.9000 J0.0000
G03 Y306.2206 Z-2.3333 I0.4500 J-0.7794
G03 X460.9000 Y307.0000 Z-3.5000 I0.4500 J0.7794
G03 X459.5500 Y307.7794 I-0.9000 J0.0000
G03 Y306.2206 I0.4500 J-0.7794
G03 X460.9000 Y307.0000 I0.4500 J0.7794
G03 X460.9181 Y307.3803 I-0.8922 J0.2330 F500
G03 X460.7689 Y307.7690 I-1.0035 J-0.1620
G03 X460.4520 Y308.0913 I-0.9342 J-0.6014
G03 X460.0000 Y308.2750 I-0.6710 J-1.0035
G03 X459.4762 Y308.2646 I-0.2365 J-1.2805
G03 X458.9658 Y308.0341 I0.3080 J-1.3627
G03 X458.5623 Y307.5956 I0.8743 J-1.2096
G03 X458.3500 Y307.0000 I1.3574 J-0.8194
G03 X458.3890 Y306.3327 I1.6648 J-0.2375
G03 X458.7007 Y305.7007 I1.7155 J0.4530
G03 X459.2610 Y305.2158 I1.4799 J1.1436
G03 X460.0000 Y305.0000 I0.9073 J1.7345
G03 X461.7321 Y308.0000 I0.0000 J2.0000
G03 X458.2679 I-1.7321 J-1.0000
G03 X460.0000 Y305.0000 I1.7321 J-1.0000
G00 X460.9000 Y307.0000
G03 X459.5500 Y307.7794 Z-4.6667 I-0.9000 J0.0000 F100
G03 Y306.2206 Z-5.8333 I0.4500 J-0.7794
G03 X460.9000 Y307.0000 Z-7.0000 I0.4500 J0.7794
G03 X459.5500 Y307.7794 I-0.9000 J0.0000
G03 Y306.2206 I0.4500 J-0.7794
G03 X460.9000 Y307.0000 I0.4500 J0.7794
G03 X460.9181 Y307.3803 I-0.8922 J0.2330 F500
G03 X460.7689 Y307.7690 I-1.0035 J-0.1620
G03 X460.4520 Y308.0913 I-0.9342 J-0.6014
G03 X460.0000 Y308.2750 I-0.6710 J-1.0035
G03 X459.4762 Y308.2646 I-0.2365 J-1.2805
G03 X458.9658 Y308.0341 I0.3080 J-1.3627
G03 X458.5623 Y307.5956 I0.8743 J-1.2096
G03 X458.3500 Y307.0000 I1.3574 J-0.8194
G03 X458.3890 Y306.3327 I1.6648 J-0.2375
G03 X458.7007 Y305.7007 I1.7155 J0.4530
G03 X459.2610 Y305.2158 I1.4799 J1.1436
G03 X460.0000 Y305.0000 I0.9073 J1.7345
G03 X461.7321 Y308.0000 I0.0000 J2.0000
G03 X458.2679 I-1.7321 J-1.0000
G03 X460.0000 Y305.0000 I1.7321 J-1.0000
G00 Z5.0000

(Nr. 50 Kreistasche 16)
G00 X460.9000 Y287.0000
G00 Z0.5000
G03 X459.5500 Y287.7794 Z0.3333 I-0.9000 J0.0000 F100
G03 Y286.2206 Z0.1667 I0.4500 J-0.7794
G03 X460.9000 Y287.0000 Z0.0000 I0.4500 J0.7794
G03 X459.5500 Y287.7794 I-0.9000 J0.0000
G03 Y286.2206 I0.4500 J-0.7794
G03 X460.9000 Y287.0000 I0.4500 J0.7794
G03 X459.5500 Y287.7794 Z-1.1667 I-0.9000 J0.0000
G03 Y286.2206 Z-2.3333 I0.4500 J-0.7794
G03 X460.9000 Y287.0000 Z-3.5000 I0.4500 J0.7794
G03 X459.5500 Y287.7794 I-0.9000 J0.0000
G03 Y286.2206 I0.4500 J-0.7794
G03 X460.9000 Y287.0000 I0.4500 J0.7794
G03 X460.9181 Y287.3803 I-0.8922 J0.2330 F500
G03 X460.7689 Y287.7690 I-1.0037 J-0.1621
G03 X460.4520 Y288.0913 I-0.9342 J-0.6014
G03 X460.0000 Y288.2750 I-0.6710 J-1.0035
G03 X459.4762 Y288.2646 I-0.2365 J-1.2804
G03 X458.9658 Y288.0341 I0.3080 J-1.3627
G03 X458.5623 Y287.5956 I0.8743 J-1.2096
G03 X458.3500 Y287.0000 I1.3574 J-0.8194
G03 X458.3890 Y286.3327 I1.6648 J-0.2375
G03 X458.7007 Y285.7007 I1.7155 J0.4530
G03 X459.2610 Y285.2158 I1.4799 J1.1436
G03 X460.0000 Y285.0000 I0.9073 J1.7345
G03 X461.7321 Y288.0000 I0.0000 J2.0000
G03 X458.2679 I-1.7321 J-1.0000
G03 X460.0000 Y285.0000 I1.7321 J-1.0000
G00 X460.9000 Y287.0000
G03 X459.5500 Y287.7794 Z-4.6667 I-0.9000 J0.0000 F100
G03 Y286.2206 Z-5.8333 I0.4500 J-0.7794
G03 X460.9000 Y287.0000 Z-7.0000 I0.4500 J0.7794
G03 X459.5500 Y287.7794 I-0.9000 J0.0000
G03 Y286.2206 I0.4500 J-0.7794
G03 X460.9000 Y287.0000 I0.4500 J0.7794
G03 X460.9181 Y287.3803 I-0.8922 J0.2330 F500
G03 X460.7689 Y287.7690 I-1.0037 J-0.1621
G03 X460.4520 Y288.0913 I-0.9342 J-0.6014
G03 X460.0000 Y288.2750 I-0.6710 J-1.0035
G03 X459.4762 Y288.2646 I-0.2365 J-1.2804
G03 X458.9658 Y288.0341 I0.3080 J-1.3627
G03 X458.5623 Y287.5956 I0.8743 J-1.2096
G03 X458.3500 Y287.0000 I1.3574 J-0.8194
G03 X458.3890 Y286.3327 I1.6648 J-0.2375
G03 X458.7007 Y285.7007 I1.7155 J0.4530
G03 X459.2610 Y285.2158 I1.4799 J1.1436
G03 X460.0000 Y285.0000 I0.9073 J1.7345
G03 X461.7321 Y288.0000 I0.0000 J2.0000
G03 X458.2679 I-1.7321 J-1.0000
G03 X460.0000 Y285.0000 I1.7321 J-1.0000
G00 Z5.0000

(Nr. 51 gravur)
G00 X470.0000 Y287.0000
G00 Z0.5000
G01 Z-1.0000 F100
G01 Y294.0000 F500
G01 X471.9445
G02 X472.3164 Y290.1480 I0.0005 J-1.9439
G01 X472.2916 Y290.1423
G01 X471.9445 Y290.1111
G01 X470.0000
G00 Z5.0000

(Nr. 52 gravur)
G00 X472.3164 Y290.1480
G00 Z0.5000
G01 Z-1.0000 F100
G01 X473.8889 Y287.0000 F500
G00 Z5.0000

(Nr. 53 gravur)
G00 X476.2222 Y289.3333
G00 Z0.5000
G01 Z-1.0000 F100
G01 X479.3333 F500
G01 Y290.1111
G03 X476.2222 I-1.5555 J0.0001
G01 Y288.1667
G03 X477.3889 Y287.0000 I1.1667 J0.0001
G01 X479.3333
G00 Z5.0000

(Nr. 54 gravur)
G00 X484.3906 Y291.2778
G00 Z0.5000
G01 Z-1.0000 F100
G03 X482.4667 Y291.6516 I-1.6976 J-3.5988 F500
G01 X482.2983 Y291.6057
G01 X482.1409 Y291.5303
G01 X481.9993 Y291.4280
G01 X481.8784 Y291.3021
G01 X481.7822 Y291.1565
G01 X481.7134 Y290.9960
G01 X481.6746 Y290.8259
G01 X481.6667 Y290.6515
G01 X481.6902 Y290.4785
G01 X481.7441 Y290.3126
G01 X481.8271 Y290.1589
G01 X481.9362 Y290.0226
G01 X482.0679 Y289.9081
G01 X482.2179 Y289.8189
G01 X484.2299 Y288.8478
G01 X484.3794 Y288.7582
G01 X484.5105 Y288.6435
G01 X484.6190 Y288.5072
G01 X484.7014 Y288.3537
G01 X484.7551 Y288.1880
G01 X484.7786 Y288.0153
G01 X484.7705 Y287.8412
G01 X484.7317 Y287.6714
G01 X484.6632 Y287.5112
G01 X484.5671 Y287.3658
G01 X484.4468 Y287.2399
G01 X484.3057 Y287.1375
G01 X484.1487 Y287.0620
G01 X483.9807 Y287.0156
G02 X481.6683 Y287.3889 I-0.2606 J5.7340
G00 Z5.0000

(Nr. 55 gravur)
G00 X487.1128 Y289.3333
G00 Z0.5000
G01 Z-1.0000 F100
G01 X490.2239 F500
G01 Y290.1111
G03 X487.1128 I-1.5555 J0.0001
G01 Y288.1667
G03 X488.2795 Y287.0000 I1.1665 J-0.0001
G01 X490.2239
G00 Z5.0000

(Nr. 56 gravur)
G00 X492.5573 Y291.6667
G00 Z0.5000
G01 Z-1.0000 F100
G01 X494.8906 F500
G00 Z5.0000

(Nr. 57 gravur)
G00 X493.3350 Y294.0000
G00 Z0.5000
G01 Z-1.0000 F100
G01 Y287.0000 F500
G00 Z5.0000

(Nr. 58 gravur)
G00 X515.1145 Y311.2778
G00 Z0.5000
G01 Z-1.0000 F100
G03 X513.1906 Y311.6516 I-1.6976 J-3.5988 F500
G01 X513.0222 Y311.6057
G01 X512.8647 Y311.5303
G01 X512.7233 Y311.4280
G01 X512.6024 Y311.3021
G01 X512.5061 Y311.1565
G01 X512.4373 Y310.9960
G01 X512.3984 Y310.8259
G01 X512.3906 Y310.6515
G01 X512.4141 Y310.4785
G01 X512.4681 Y310.3126
G01 X512.5510 Y310.1589
G01 X512.6600 Y310.0226
G01 X512.7917 Y309.9081
G01 X512.9418 Y309.8189
G01 X514.9537 Y308.8478
G01 X515.1033 Y308.7582
G01 X515.2344 Y308.6435
G01 X515.3429 Y308.5072
G01 X515.4253 Y308.3537
G01 X515.4790 Y308.1880
G01 X515.5024 Y308.0153
G01 X515.4944 Y307.8412
G01 X515.4556 Y307.6714
G01 X515.3871 Y307.5112
G01 X515.2910 Y307.3658
G01 X515.1707 Y307.2399
G01 X515.0295 Y307.1375
G01 X514.8726 Y307.0620
G01 X514.7046 Y307.0156
G02 X512.3922 Y307.3889 I-0.2606 J5.7339
G00 Z5.0000

(Nr. 59 gravur)
G00 X517.8367 Y311.6667
G00 Z0.5000
G01 Z-1.0000 F100
G01 X520.1699 F500
G00 Z5.0000

(Nr. 60 gravur)
G00 X518.6145 Y314.0000
G00 Z0.5000
G01 Z-1.0000 F100
G01 Y307.0000 F500
G00 Z5.0000

(Nr. 61 gravur)
G00 X522.5034 Y309.3333
G00 Z0.5000
G01 Z-1.0000 F100
G01 X525.6145 F500
G01 Y310.1111
G03 X522.5034 I-1.5555 J0.0001
G01 Y308.1667
G03 X523.6700 Y307.0000 I1.1665 J-0.0001
G01 X525.6145
G00 Z5.0000

(Nr. 62 gravur)
G00 X527.9478
G00 Z0.5000
G01 Z-1.0000 F100
G01 Y311.6667 F500
G01 X531.4478
G02 X532.6145 Y310.5000 I-0.0001 J-1.1669
G01 Y307.0000
G00 Z5.0000

(Nr. 63 gravur)
G00 X530.2811
G00 Z0.5000
G01 Z-1.0000 F100
G01 Y311.6667 F500
G00 Z5.0000

(Nr. 64 Kreistasche 12)
G00 X590.9000 Y227.0000
G00 Z0.5000
G03 X589.5500 Y227.7794 Z0.3333 I-0.9000 J0.0000 F100
G03 Y226.2206 Z0.1667 I0.4500 J-0.7794
G03 X590.9000 Y227.0000 Z0.0000 I0.4500 J0.7794
G03 X589.5500 Y227.7794 I-0.9000 J0.0000
G03 Y226.2206 I0.4500 J-0.7794
G03 X590.9000 Y227.0000 I0.4500 J0.7794
G03 X589.5500 Y227.7794 Z-1.1667 I-0.9000 J0.0000
G03 Y226.2206 Z-2.3333 I0.4500 J-0.7794
G03 X590.9000 Y227.0000 Z-3.5000 I0.4500 J0.7794
G03 X589.5500 Y227.7794 I-0.9000 J0.0000
G03 Y226.2206 I0.4500 J-0.7794
G03 X590.9000 Y227.0000 I0.4500 J0.7794
G03 X590.9181 Y227.3803 I-0.8922 J0.2330 F500
G03 X590.7689 Y227.7690 I-1.0037 J-0.1621
G03 X590.4520 Y228.0913 I-0.9342 J-0.6014
G03 X590.0000 Y228.2750 I-0.6710 J-1.0035
G03 X589.4762 Y228.2646 I-0.2365 J-1.2804
G03 X588.9658 Y228.0341 I0.3080 J-1.3627
G03 X588.5623 Y227.5956 I0.8743 J-1.2096
G03 X588.3500 Y227.0000 I1.3574 J-0.8194
G03 X588.3890 Y226.3327 I1.6648 J-0.2375
G03 X588.7007 Y225.7007 I1.7155 J0.4530
G03 X589.2610 Y225.2158 I1.4799 J1.1436
G03 X590.0000 Y224.9750 I0.9658 J1.7099
G03 X590.8108 Y225.0425 I0.2379 J2.0447
G03 X591.5645 Y225.4355 I-0.5990 J2.0679
G03 X592.1307 Y226.1174 I-1.4115 J1.7481
G03 X592.4000 Y227.0000 I-2.0619 J1.1114
G03 X592.3040 Y227.9543 I-2.4246 J0.2378
G03 X591.8296 Y228.8296 I-2.4186 J-0.7444
G03 X591.0261 Y229.4772 I-2.0154 J-1.6786
G03 X590.0000 Y229.7750 I-1.2561 J-2.4111
G03 X588.9022 Y229.6504 I-0.2379 J-2.8018
G03 X587.9052 Y229.0948 I0.8883 J-2.7665
G03 X587.2284 Y228.1481 I2.0397 J-2.1733
G03 X590.3916 Y224.0257 I2.7716 J-1.1481
G03 X592.3801 Y228.8263 I-0.3916 J2.9743
G03 X587.2284 Y228.1481 I-2.3801 J-1.8263
G00 X590.9000 Y227.0000
G03 X589.5500 Y227.7794 Z-4.6667 I-0.9000 J0.0000 F100
G03 Y226.2206 Z-5.8333 I0.4500 J-0.7794
G03 X590.9000 Y227.0000 Z-7.0000 I0.4500 J0.7794
G03 X589.5500 Y227.7794 I-0.9000 J0.0000
G03 Y226.2206 I0.4500 J-0.7794
G03 X590.9000 Y227.0000 I0.4500 J0.7794
G03 X590.9181 Y227.3803 I-0.8922 J0.2330 F500
G03 X590.7689 Y227.7690 I-1.0037 J-0.1621
G03 X590.4520 Y228.0913 I-0.9342 J-0.6014
G03 X590.0000 Y228.2750 I-0.6710 J-1.0035
G03 X589.4762 Y228.2646 I-0.2365 J-1.2804
G03 X588.9658 Y228.0341 I0.3080 J-1.3627
G03 X588.5623 Y227.5956 I0.8743 J-1.2096
G03 X588.3500 Y227.0000 I1.3574 J-0.8194
G03 X588.3890 Y226.3327 I1.6648 J-0.2375
G03 X588.7007 Y225.7007 I1.7155 J0.4530
G03 X589.2610 Y225.2158 I1.4799 J1.1436
G03 X590.0000 Y224.9750 I0.9658 J1.7099
G03 X590.8108 Y225.0425 I0.2379 J2.0447
G03 X591.5645 Y225.4355 I-0.5990 J2.0679
G03 X592.1307 Y226.1174 I-1.4115 J1.7481
G03 X592.4000 Y227.0000 I-2.0619 J1.1114
G03 X592.3040 Y227.9543 I-2.4246 J0.2378
G03 X591.8296 Y228.8296 I-2.4186 J-0.7444
G03 X591.0261 Y229.4772 I-2.0154 J-1.6786
G03 X590.0000 Y229.7750 I-1.2561 J-2.4111
G03 X588.9022 Y229.6504 I-0.2379 J-2.8018
G03 X587.9052 Y229.0948 I0.8883 J-2.7665
G03 X587.2284 Y228.1481 I2.0397 J-2.1733
G03 X590.3916 Y224.0257 I2.7716 J-1.1481
G03 X592.3801 Y228.8263 I-0.3916 J2.9743
G03 X587.2284 Y228.1481 I-2.3801 J-1.8263
G00 Z5.0000

(Nr. 65 Kreistasche 13)
G00 X590.9000 Y197.0000
G00 Z0.5000
G03 X589.5500 Y197.7794 Z0.3333 I-0.9000 J0.0000 F100
G03 Y196.2206 Z0.1667 I0.4500 J-0.7794
G03 X590.9000 Y197.0000 Z0.0000 I0.4500 J0.7794
G03 X589.5500 Y197.7794 I-0.9000 J0.0000
G03 Y196.2206 I0.4500 J-0.7794
G03 X590.9000 Y197.0000 I0.4500 J0.7794
G03 X589.5500 Y197.7794 Z-1.1667 I-0.9000 J0.0000
G03 Y196.2206 Z-2.3333 I0.4500 J-0.7794
G03 X590.9000 Y197.0000 Z-3.5000 I0.4500 J0.7794
G03 X589.5500 Y197.7794 I-0.9000 J0.0000
G03 Y196.2206 I0.4500 J-0.7794
G03 X590.9000 Y197.0000 I0.4500 J0.7794
G03 X590.9181 Y197.3803 I-0.8922 J0.2330 F500
G03 X590.7689 Y197.7690 I-1.0037 J-0.1621
G03 X590.4520 Y198.0913 I-0.9342 J-0.6014
G03 X590.0000 Y198.2750 I-0.6710 J-1.0035
G03 X589.4762 Y198.2646 I-0.2365 J-1.2804
G03 X588.9658 Y198.0341 I0.3080 J-1.3627
G03 X588.5623 Y197.5956 I0.8743 J-1.2096
G03 X588.3500 Y197.0000 I1.3574 J-0.8194
G03 X588.3890 Y196.3327 I1.6648 J-0.2375
G03 X588.7007 Y195.7007 I1.7155 J0.4530
G03 X589.2610 Y195.2158 I1.4799 J1.1436
G03 X590.0000 Y194.9750 I0.9658 J1.7099
G03 X590.8108 Y195.0425 I0.2379 J2.0447
G03 X591.5645 Y195.4355 I-0.5990 J2.0679
G03 X592.1307 Y196.1174 I-1.4115 J1.7481
G03 X592.4000 Y197.0000 I-2.0619 J1.1114
G03 X592.3040 Y197.9543 I-2.4246 J0.2378
G03 X591.8296 Y198.8296 I-2.4186 J-0.7444
G03 X591.0261 Y199.4772 I-2.0154 J-1.6786
G03 X590.0000 Y199.7750 I-1.2561 J-2.4111
G03 X588.9022 Y199.6504 I-0.2379 J-2.8018
G03 X587.9052 Y199.0948 I0.8883 J-2.7665
G03 X587.1764 Y198.1696 I1.9471 J-2.2833
G03 X586.8500 Y197.0000 I2.7592 J-1.4003
G03 X587.0032 Y195.7587 I3.1799 J-0.2377
G03 X587.6400 Y194.6400 I3.1152 J1.0329
G03 X588.6869 Y193.8299 I2.5497 J2.2135
G03 X590.0000 Y193.4750 I1.5446 J3.1077
G03 X591.3849 Y193.6567 I0.2378 J3.5560
G03 X592.6251 Y194.3749 I-1.1776 J3.4638
G03 X593.5165 Y195.5434 I-2.4795 J2.8157
G03 X593.9000 Y197.0000 I-3.4545 J1.6884
G03 X593.6897 Y198.5283 I-3.9332 J0.2375
G03 X592.8903 Y199.8903 I-3.8101 J-1.3207
G03 X591.6001 Y200.8630 I-3.0814 J-2.7452
G03 X590.0000 Y201.2750 I-1.8324 J-3.8032
G03 X588.3281 Y201.0362 I-0.2375 J-4.3087
G03 X586.8445 Y200.1555 I1.4656 J-4.1587
G03 X585.7905 Y198.7436 I3.0126 J-3.3481
G03 X585.3500 Y197.0000 I4.1517 J-1.9764
G03 X585.6173 Y195.1846 I4.6855 J-0.2373
G03 X586.5793 Y193.5794 I4.5067 J1.6100
G03 X588.1129 Y192.4441 I3.6136 J3.2781
G03 X590.0000 Y191.9750 I2.1199 J4.4976
G03 X591.9589 Y192.2709 I0.2374 J5.0606
G03 X593.6858 Y193.3142 I-1.7534 J4.8532
G03 X594.9023 Y194.9694 I-3.5435 J3.8791
G03 X595.4000 Y197.0000 I-4.8452 J2.2637
G03 X595.0756 Y199.1024 I-5.4371 J0.2371
G03 X593.9509 Y200.9510 I-5.2002 J-1.8972
G03 X592.1741 Y202.2488 I-4.1444 J-3.8088
G03 X590.0000 Y202.7750 I-2.4073 J-5.1918
G03 X587.7542 Y202.4220 I-0.2372 J-5.8120
G03 X585.7839 Y201.2161 I2.0408 J-5.5470
G03 X584.4567 Y199.2961 I4.1605 J-4.2946
G03 X590.7832 Y191.0513 I5.5433 J-2.2961
G03 X594.7601 Y200.6526 I-0.7832 J5.9487
G03 X584.4567 Y199.2961 I-4.7601 J-3.6526
G00 X590.9000 Y197.0000
G03 X589.5500 Y197.7794 Z-4.6667 I-0.9000 J0.0000 F100
G03 Y196.2206 Z-5.8333 I0.4500 J-0.7794
G03 X590.9000 Y197.0000 Z-7.0000 I0.4500 J0.7794
G03 X589.5500 Y197.7794 I-0.9000 J0.0000
G03 Y196.2206 I0.4500 J-0.7794
G03 X590.9000 Y197.0000 I0.4500 J0.7794
G03 X590.9181 Y197.3803 I-0.8922 J0.2330 F500
G03 X590.7689 Y197.7690 I-1.0037 J-0.1621
G03 X590.4520 Y198.0913 I-0.9342 J-0.6014
G03 X590.0000 Y198.2750 I-0.6710 J-1.0035
G03 X589.4762 Y198.2646 I-0.2365 J-1.2804
G03 X588.9658 Y198.0341 I0.3080 J-1.3627
G03 X588.5623 Y197.5956 I0.8743 J-1.2096
G03 X588.3500 Y197.0000 I1.3574 J-0.8194
G03 X588.3890 Y196.3327 I1.6648 J-0.2375
G03 X588.7007 Y195.7007 I1.7155 J0.4530
G03 X589.2610 Y195.2158 I1.4799 J1.1436
G03 X590.0000 Y194.9750 I0.9658 J1.7099
G03 X590.8108 Y195.0425 I0.2379 J2.0447
G03 X591.5645 Y195.4355 I-0.5990 J2.0679
G03 X592.1307 Y196.1174 I-1.4115 J1.7481
G03 X592.4000 Y197.0000 I-2.0619 J1.1114
G03 X592.3040 Y197.9543 I-2.4246 J0.2378
G03 X591.8296 Y198.8296 I-2.4186 J-0.7444
G03 X591.0261 Y199.4772 I-2.0154 J-1.6786
G03 X590.0000 Y199.7750 I-1.2561 J-2.4111
G03 X588.9022 Y199.6504 I-0.2379 J-2.8018
G03 X587.9052 Y199.0948 I0.8883 J-2.7665
G03 X587.1764 Y198.1696 I1.9471 J-2.2833
G03 X586.8500 Y197.0000 I2.7592 J-1.4003
G03 X587.0032 Y195.7587 I3.1799 J-0.2377
G03 X587.6400 Y194.6400 I3.1152 J1.0329
G03 X588.6869 Y193.8299 I2.5497 J2.2135
G03 X590.0000 Y193.4750 I1.5446 J3.1077
G03 X591.3849 Y193.6567 I0.2378 J3.5560
G03 X592.6251 Y194.3749 I-1.1776 J3.4638
G03 X593.5165 Y195.5434 I-2.4795 J2.8157
G03 X593.9000 Y197.0000 I-3.4545 J1.6884
G03 X593.6897 Y198.5283 I-3.9332 J0.2375
G03 X592.8903 Y199.8903 I-3.8101 J-1.3207
G03 X591.6001 Y200.8630 I-3.0814 J-2.7452
G03 X590.0000 Y201.2750 I-1.8324 J-3.8032
G03 X588.3281 Y201.0362 I-0.2375 J-4.3087
G03 X586.8445 Y200.1555 I1.4656 J-4.1587
G03 X585.7905 Y198.7436 I3.0126 J-3.3481
G03 X585.3500 Y197.0000 I4.1517 J-1.9764
G03 X585.6173 Y195.1846 I4.6855 J-0.2373
G03 X586.5793 Y193.5794 I4.5067 J1.6100
G03 X588.1129 Y192.4441 I3.6136 J3.2781
G03 X590.0000 Y191.9750 I2.1199 J4.4976
G03 X591.9589 Y192.2709 I0.2374 J5.0606
G03 X593.6858 Y193.3142 I-1.7534 J4.8532
G03 X594.9023 Y194.9694 I-3.5435 J3.8791
G03 X595.4000 Y197.0000 I-4.8452 J2.2637
G03 X595.0756 Y199.1024 I-5.4371 J0.2371
G03 X593.9509 Y200.9510 I-5.2002 J-1.8972
G03 X592.1741 Y202.2488 I-4.1444 J-3.8088
G03 X590.0000 Y202.7750 I-2.4073 J-5.1918
G03 X587.7542 Y202.4220 I-0.2372 J-5.8120
G03 X585.7839 Y201.2161 I2.0408 J-5.5470
G03 X584.4567 Y199.2961 I4.1605 J-4.2946
G03 X590.7832 Y191.0513 I5.5433 J-2.2961
G03 X594.7601 Y200.6526 I-0.7832 J5.9487
G03 X584.4567 Y199.2961 I-4.7601 J-3.6526
G00 Z5.0000
G00 X0.0000 Y0.0000

M05
M30
