(Projekt Gewicht)
(Erstellt mit Estlcam 2.5D Version 7 Build 7,623)
(Fraesrichtung: Gleichlauf)
(Nullpunkt: Auf Teileoberseite)
(Maximale Fraestiefe: 8,00mm)
(Verwendete Werkzeuge:)
(Fraeser 1)

G90
G91.1
M03
G00 Z5.0000

(Nr. 1 Ausschnitt 1)
G00 X19.6052 Y54.5056
G00 Z0.5000
G01 Z-4.0000 F100 S24000
G03 X30.8395 Y64.1412 I2.8948 J7.9918 F500
G03 X16.9663 Y68.9494 I-8.3395 J-1.6438
G03 X19.6052 Y54.5056 I5.5337 J-6.4519
G01 Z-8.0000 F100
G03 X30.8395 Y64.1412 I2.8948 J7.9918 F500
G03 X16.9663 Y68.9494 I-8.3395 J-1.6438
G03 X19.6052 Y54.5056 I5.5337 J-6.4519
G00 Z5.0000

(Nr. 2 Ausschnitt 2)
G00 X50.6968 Y64.3162
G00 Z0.5000
G01 Z-4.0000 F100
G03 X54.1072 Y63.7148 I1.8788 J0.6838 F500
G03 X52.7250 Y66.9938 I-1.5316 J1.2852
G03 X50.6968 Y64.3162 I-0.1494 J-1.9938
G01 Z-8.0000 F100
G03 X54.1072 Y63.7148 I1.8788 J0.6838 F500
G03 X52.7250 Y66.9938 I-1.5316 J1.2852
G03 X50.6968 Y64.3162 I-0.1494 J-1.9938
G00 Z5.0000

(Nr. 3 Ausschnitt 3)
G00 X70.8630 Y64.6645
G00 Z0.5000
G01 Z-4.0000 F100
G03 X73.9447 Y63.0846 I1.9969 J0.0997 F500
G03 X73.5904 Y66.6253 I-1.0848 J1.6795
G03 X70.8630 Y64.6645 I-0.7305 J-1.8612
G01 Z-8.0000 F100
G03 X73.9447 Y63.0846 I1.9969 J0.0997 F500
G03 X73.5904 Y66.6253 I-1.0848 J1.6795
G03 X70.8630 Y64.6645 I-0.7305 J-1.8612
G00 Z5.0000

(Nr. 4 Ausschnitt 4)
G00 X91.1965 Y64.5837
G00 Z0.5000
G01 Z-4.0000 F100
G03 X94.2782 Y63.0039 I1.9969 J0.0997 F500
G03 X93.9239 Y66.5446 I-1.0848 J1.6795
G03 X91.1965 Y64.5837 I-0.7305 J-1.8612
G01 Z-8.0000 F100
G03 X94.2782 Y63.0039 I1.9969 J0.0997 F500
G03 X93.9239 Y66.5446 I-1.0848 J1.6795
G03 X91.1965 Y64.5837 I-0.7305 J-1.8612
G00 Z5.0000

(Nr. 5 Ausschnitt 5)
G00 X93.2676 Y44.7064
G00 Z0.5000
G01 Z-4.0000 F100
G03 X91.9224 Y41.5153 I0.2486 J-1.9839 F500
G03 X95.4267 Y42.1332 I1.5938 J1.2072
G03 X93.2676 Y44.7064 I-1.9106 J0.5893
G01 Z-8.0000 F100
G03 X91.9224 Y41.5153 I0.2486 J-1.9839 F500
G03 X95.4267 Y42.1332 I1.5938 J1.2072
G03 X93.2676 Y44.7064 I-1.9106 J0.5893
G00 Z5.0000

(Nr. 6 Teil 5)
G00 X94.3988 Y53.2225
G00 Z0.5000
G01 Z-4.0000 F100
G01 X101.0162 F500
G02 X101.5162 Y52.7225 I0.0000 J-0.5000
G01 Y42.7162
G02 X96.0225 Y37.2225 I-5.4996 J0.0059
G01 X91.0099
G02 X85.5162 Y42.7162 I0.0059 J5.4996
G01 Y52.7225
G02 X86.0162 Y53.2225 I0.5000 J0.0000
G01 X92.8988
G00 Z0.0000
G01 X94.3988
G00 Z-3.5000
G01 Z-8.0000 F100
G01 X101.0162 F500
G02 X101.5162 Y52.7225 I0.0000 J-0.5000
G01 Y42.7162
G02 X96.0225 Y37.2225 I-5.4996 J0.0059
G01 X91.0099
G02 X85.5162 Y42.7162 I0.0059 J5.4996
G01 Y52.7225
G02 X86.0162 Y53.2225 I0.5000 J0.0000
G01 X92.8988
G00 Z0.0000
G01 X94.3988
G00 Z5.0000

(Nr. 7 Teil 4)
G00 X94.2646 Y75.1834
G00 Z0.5000
G01 Z-4.0000 F100
G01 X100.6934 F500
G02 X101.1934 Y74.6834 I0.0000 J-0.5000
G01 Y64.6771
G02 X95.6998 Y59.1834 I-5.4996 J0.0059
G01 X90.6871
G02 X85.1934 Y64.6771 I0.0059 J5.4996
G01 Y74.6834
G02 X85.6934 Y75.1834 I0.5000 J0.0000
G01 X92.7646
G00 Z0.0000
G01 X94.2646
G00 Z-3.5000
G01 Z-8.0000 F100
G01 X100.6934 F500
G02 X101.1934 Y74.6834 I0.0000 J-0.5000
G01 Y64.6771
G02 X95.6998 Y59.1834 I-5.4996 J0.0059
G01 X90.6871
G02 X85.1934 Y64.6771 I0.0059 J5.4996
G01 Y74.6834
G02 X85.6934 Y75.1834 I0.5000 J0.0000
G01 X92.7646
G00 Z0.0000
G01 X94.2646
G00 Z5.0000

(Nr. 8 Teil 3)
G00 X73.6861 Y75.2641
G00 Z0.5000
G01 Z-4.0000 F100
G01 X80.3599 F500
G02 X80.8599 Y74.7641 I0.0000 J-0.5000
G01 Y64.7578
G02 X75.3662 Y59.2641 I-5.4996 J0.0059
G01 X70.3536
G02 X64.8599 Y64.7578 I0.0060 J5.4996
G01 Y74.7641
G02 X65.3599 Y75.2641 I0.5000 J0.0000
G01 X72.1861
G00 Z0.0000
G01 X73.6861
G00 Z-3.5000
G01 Z-8.0000 F100
G01 X80.3599 F500
G02 X80.8599 Y74.7641 I0.0000 J-0.5000
G01 Y64.7578
G02 X75.3662 Y59.2641 I-5.4996 J0.0059
G01 X70.3536
G02 X64.8599 Y64.7578 I0.0060 J5.4996
G01 Y74.7641
G02 X65.3599 Y75.2641 I0.5000 J0.0000
G01 X72.1861
G00 Z0.0000
G01 X73.6861
G00 Z5.0000

(Nr. 9 Teil 2)
G00 X52.1666 Y75.5000
G00 Z0.5000
G01 Z-4.0000 F100
G01 X60.0756 F500
G02 X60.5756 Y75.0000 I0.0000 J-0.5000
G01 Y64.9937
G02 X55.0819 Y59.5000 I-5.4996 J0.0060
G01 X45.0756
G02 X44.5756 Y60.0000 I0.0000 J0.5000
G01 Y75.0000
G02 X45.0756 Y75.5000 I0.5000 J0.0000
G01 X50.6666
G00 Z0.0000
G01 X52.1666
G00 Z-3.5000
G01 Z-8.0000 F100
G01 X60.0756 F500
G02 X60.5756 Y75.0000 I0.0000 J-0.5000
G01 Y64.9937
G02 X55.0819 Y59.5000 I-5.4996 J0.0060
G01 X45.0756
G02 X44.5756 Y60.0000 I0.0000 J0.5000
G01 Y75.0000
G02 X45.0756 Y75.5000 I0.5000 J0.0000
G01 X50.6666
G00 Z0.0000
G01 X52.1666
G00 Z5.0000

(Nr. 10 Teil 1)
G00 X9.5327 Y39.7496
G00 Z0.5000
G01 Z-4.0000 F100
G01 X9.5000 Y62.4813 F500
G02 X35.5000 Y62.4816 I13.0000 J0.0163
G01 X35.5540 Y49.9869
G03 X40.0603 Y45.5000 I4.5004 J0.0135
G01 X55.0592
G01 X70.0839 Y45.4980
G02 X75.5769 Y40.0037 I-0.0067 J-5.4996
G01 X75.5753 Y29.9821
G02 X75.4291 Y29.6465 I-0.4997 J0.0179
G01 X55.4291 Y9.6464
G02 X55.0756 Y9.5000 I-0.3536 J0.3536
G01 X34.8150 Y9.5001
G00 Z0.0000
G01 X33.3150
G01 Z-4.0000 F100
G01 X10.0582 Y9.5003 F500
G02 X9.5756 Y9.9993 I0.0174 J0.4997
G01 X9.5349 Y38.2496
G00 Z0.0000
G01 X9.5327 Y39.7496
G00 Z-3.5000
G01 Z-8.0000 F100
G01 X9.5000 Y62.4813 F500
G02 X35.5000 Y62.4816 I13.0000 J0.0163
G01 X35.5540 Y49.9869
G03 X40.0603 Y45.5000 I4.5004 J0.0135
G01 X55.0592
G01 X70.0839 Y45.4980
G02 X75.5769 Y40.0037 I-0.0067 J-5.4996
G01 X75.5753 Y29.9821
G02 X75.4291 Y29.6465 I-0.4997 J0.0179
G01 X55.4291 Y9.6464
G02 X55.0756 Y9.5000 I-0.3536 J0.3536
G01 X34.8150 Y9.5001
G00 Z0.0000
G01 X33.3150
G00 Z-3.5000
G01 Z-8.0000 F100
G01 X10.0582 Y9.5003 F500
G02 X9.5756 Y9.9993 I0.0174 J0.4997
G01 X9.5349 Y38.2496
G00 Z0.0000
G01 X9.5327 Y39.7496
G00 Z5.0000
G00 X0.0000 Y0.0000

M05
M30
