(Projekt Zusammenfassung 2)
(Erstellt mit Estlcam 2.5D Version 7 Build 7,623)
(Fraesrichtung: Gleichlauf)
(Nullpunkt: Auf Teileoberseite)
(Maximale Fraestiefe: 7,20mm)
(Verwendete Werkzeuge:)
(Fraeser 1)

G90
G91.1
M03
G00 Z5.0000

(Nr. 1 Ausschnitt 10)
G00 X39.7875 Y36.5793
G00 Z0.5000
G01 Z-3.6000 F100 S24000
G03 X42.3183 Y37.1570 I1.0987 J1.0194 F500
G03 X40.4088 Y39.0194 I-1.4322 J0.4418
G03 X39.7875 Y36.5793 I0.4773 J-1.4207
G01 Z-7.2000 F100
G03 X42.3183 Y37.1570 I1.0987 J1.0194 F500
G03 X40.4088 Y39.0194 I-1.4322 J0.4418
G03 X39.7875 Y36.5793 I0.4773 J-1.4207
G00 Z5.0000

(Nr. 2 Ausschnitt 8)
G00 X59.8930 Y37.9242
G00 Z0.5000
G01 Z-3.6000 F100
G03 X62.2031 Y36.7399 I1.4969 J0.0747 F500
G03 X61.9375 Y39.3941 I-0.8131 J1.2590
G03 X59.8930 Y37.9242 I-0.5476 J-1.3952
G01 Z-7.2000 F100
G03 X62.2031 Y36.7399 I1.4969 J0.0747 F500
G03 X61.9375 Y39.3941 I-0.8131 J1.2590
G03 X59.8930 Y37.9242 I-0.5476 J-1.3952
G00 Z5.0000

(Nr. 3 Ausschnitt 9)
G00 X61.3526 Y18.4972
G00 Z0.5000
G01 Z-3.6000 F100
G03 X60.1111 Y16.2174 I0.0374 J-1.4983 F500
G03 X62.7710 Y16.4168 I1.2789 J0.7815
G03 X61.3526 Y18.4972 I-1.3811 J0.5822
G01 Z-7.2000 F100
G03 X60.1111 Y16.2174 I0.0374 J-1.4983 F500
G03 X62.7710 Y16.4168 I1.2789 J0.7815
G03 X61.3526 Y18.4972 I-1.3811 J0.5822
G00 Z5.0000

(Nr. 4 Ausschnitt 7)
G00 X104.9898 Y55.6230
G00 Z0.5000
G01 Z-3.6000 F100
G03 X107.5207 Y56.2006 I1.0987 J1.0194 F500
G03 X105.6111 Y58.0631 I-1.4322 J0.4418
G03 X104.9898 Y55.6230 I0.4773 J-1.4207
G01 Z-7.2000 F100
G03 X107.5207 Y56.2006 I1.0987 J1.0194 F500
G03 X105.6111 Y58.0631 I-1.4322 J0.4418
G03 X104.9898 Y55.6230 I0.4773 J-1.4207
G00 Z5.0000

(Nr. 5 Ausschnitt 6)
G00 X106.0511 Y76.1441
G00 Z0.5000
G01 Z-3.6000 F100
G03 X107.4047 Y78.3592 I0.0373 J1.4983 F500
G03 X104.7382 Y78.2927 I-1.3162 J-0.7168
G03 X106.0511 Y76.1441 I1.3503 J-0.6503
G01 Z-7.2000 F100
G03 X107.4047 Y78.3592 I0.0373 J1.4983 F500
G03 X104.7382 Y78.2927 I-1.3162 J-0.7168
G03 X106.0511 Y76.1441 I1.3503 J-0.6503
G00 Z5.0000

(Nr. 6 Ausschnitt 2)
G00 X135.1045 Y74.4304
G00 Z0.5000
G01 Z-3.0000 F100
G01 Y56.3304 F500
G01 X136.6045
G01 Y74.4304
G01 X138.1045
G01 Y56.3304
G01 X139.6045
G01 Y74.4304
G00 Z5.0000
G00 X134.3545 Y74.6304
G00 Z0.5000
G01 Z-3.0000 F100
G01 Y56.1304 F500
G01 X140.3545
G01 Y74.6304
G01 X134.3545
G00 Z5.0000

(Nr. 7 Ausschnitt 4)
G00 X142.3545
G00 Z0.5000
G01 Z-3.6000 F100
G01 Y56.1304 F500
G01 X180.8545
G01 Y74.6304
G01 X142.3545
G01 Z-7.2000 F100
G01 Y56.1304 F500
G01 X180.8545
G01 Y74.6304
G01 X142.3545
G00 Z5.0000

(Nr. 8 Ausschnitt 3)
G00 X183.6045 Y74.4304
G00 Z0.5000
G01 Z-3.0000 F100
G01 Y56.3304 F500
G01 X185.1045
G01 Y74.4304
G01 X186.6045
G01 Y56.3304
G01 X188.1045
G01 Y74.4304
G00 Z5.0000
G00 X182.8545 Y74.6304
G00 Z0.5000
G01 Z-3.0000 F100
G01 Y56.1304 F500
G01 X188.8545
G01 Y74.6304
G01 X182.8545
G00 Z5.0000

(Nr. 9 Ausschnitt 5)
G00 X44.0014 Y79.7864
G00 Z0.5000
G01 Z-3.6000 F100
G03 X41.7533 Y81.0843 I-1.4988 J0.0000 F500
G03 X41.8862 Y78.4202 I0.7494 J-1.2980
G03 X44.0014 Y79.7864 I0.6164 J1.3661
G01 Z-7.2000 F100
G03 X41.7533 Y81.0843 I-1.4988 J0.0000 F500
G03 X41.8862 Y78.4202 I0.7494 J-1.2980
G03 X44.0014 Y79.7864 I0.6164 J1.3661
G00 Z5.0000

(Nr. 10 Teil 2)
G00 X33.5026 Y73.0731
G00 Z0.5000
G01 Z-3.6000 F100
G01 Y86.7864 F500
G02 X34.5026 Y87.7864 I1.0000 J0.0000
G01 X42.5115
G02 X49.7064 Y76.3085 I-0.0082 J-7.9992
G01 X40.4348 Y52.4245
G02 X39.5026 Y51.7864 I-0.9322 J0.3619
G01 X34.5026
G02 X33.5026 Y52.7864 I0.0000 J1.0000
G01 Y70.0731
G00 Z0.0000
G01 Y73.0731
G00 Z-3.1000
G01 Z-7.2000 F100
G01 Y86.7864 F500
G02 X34.5026 Y87.7864 I1.0000 J0.0000
G01 X42.5115
G02 X49.7064 Y76.3085 I-0.0082 J-7.9992
G01 X40.4348 Y52.4245
G02 X39.5026 Y51.7864 I-0.9322 J0.3619
G01 X34.5026
G02 X33.5026 Y52.7864 I0.0000 J1.0000
G01 Y70.0731
G00 Z0.0000
G01 Y73.0731
G00 Z5.0000

(Nr. 11 Teil 1)
G00 X9.0000 Y48.1447
G00 Z0.5000
G01 Z-3.6000 F100
G01 Y82.7789 F500
G02 X10.0000 Y83.7789 I1.0000 J0.0000
G01 X25.0000
G02 X26.0000 Y82.7789 I0.0000 J-1.0000
G01 Y12.7789
G02 X25.0000 Y11.7789 I-1.0000 J0.0000
G01 X10.0000
G02 X9.0000 Y12.7789 I0.0000 J1.0000
G01 Y45.1447
G00 Z0.0000
G01 Y48.1447
G00 Z-3.1000
G01 Z-7.2000 F100
G01 Y82.7789 F500
G02 X10.0000 Y83.7789 I1.0000 J0.0000
G01 X25.0000
G02 X26.0000 Y82.7789 I0.0000 J-1.0000
G01 Y12.7789
G02 X25.0000 Y11.7789 I-1.0000 J0.0000
G01 X10.0000
G02 X9.0000 Y12.7789 I0.0000 J1.0000
G01 Y45.1447
G00 Z0.0000
G01 Y48.1447
G00 Z5.0000

(Nr. 12 Teil 7)
G00 X49.8861 Y27.4185
G00 Z0.5000
G01 Z-3.6000 F100
G01 Y10.5987 F500
G02 X48.8861 Y9.5987 I-1.0000 J0.0000
G01 X43.8861
G02 X42.9539 Y10.2369 I0.0000 J1.0000
G01 X33.6823 Y34.1209
G01 X33.4720 Y34.5932
G02 X40.8772 Y45.5987 I7.4139 J3.0056
G01 X48.8861
G02 X49.8861 Y44.5987 I0.0000 J-1.0000
G01 Y30.4185
G00 Z0.0000
G01 Y27.4185
G00 Z-3.1000
G01 Z-7.2000 F100
G01 Y10.5987 F500
G02 X48.8861 Y9.5987 I-1.0000 J0.0000
G01 X43.8861
G02 X42.9539 Y10.2369 I0.0000 J1.0000
G01 X33.6823 Y34.1209
G01 X33.4720 Y34.5932
G02 X40.8772 Y45.5987 I7.4139 J3.0056
G01 X48.8861
G02 X49.8861 Y44.5987 I0.0000 J-1.0000
G01 Y30.4185
G00 Z0.0000
G01 Y27.4185
G00 Z5.0000

(Nr. 13 Teil 4)
G00 X81.5303 Y53.2769
G00 Z0.5000
G01 Z-3.6000 F100
G01 X53.8972 Y58.6608 F500
G02 X53.0885 Y59.6424 I0.1912 J0.9815
G01 Y64.6424
G02 X54.0885 Y65.6424 I1.0000 J0.0000
G01 X94.0885
G02 X95.0885 Y64.6424 I0.0000 J-1.0000
G01 X106.0975
G02 X104.5336 Y48.7950 I-0.0088 J-8.0000
G01 X84.4750 Y52.7032
G00 Z0.0000
G01 X81.5303 Y53.2769
G00 Z-3.1000
G01 Z-7.2000 F100
G01 X53.8972 Y58.6608 F500
G02 X53.0885 Y59.6424 I0.1912 J0.9815
G01 Y64.6424
G02 X54.0885 Y65.6424 I1.0000 J0.0000
G01 X94.0885
G02 X95.0885 Y64.6424 I0.0000 J-1.0000
G01 X106.0975
G02 X104.5336 Y48.7950 I-0.0088 J-8.0000
G01 X84.4750 Y52.7032
G00 Z0.0000
G01 X81.5303 Y53.2769
G00 Z5.0000

(Nr. 14 Teil 5)
G00 X92.6908 Y41.3757
G00 Z0.5000
G01 Z-3.6000 F100
G01 X128.5728 Y35.9821 F500
G02 X129.3899 Y34.9989 I-0.1828 J-0.9832
G01 Y29.9989
G02 X128.3899 Y28.9989 I-1.0000 J0.0000
G01 X73.3899
G02 X72.3899 Y29.9989 I0.0000 J1.0000
G01 X61.3810
G02 X62.9235 Y45.8502 I0.0087 J7.9998
G01 X89.7241 Y41.8216
G00 Z0.0000
G01 X92.6908 Y41.3757
G00 Z-3.1000
G01 Z-7.2000 F100
G01 X128.5728 Y35.9821 F500
G02 X129.3899 Y34.9989 I-0.1828 J-0.9832
G01 Y29.9989
G02 X128.3899 Y28.9989 I-1.0000 J0.0000
G01 X73.3899
G02 X72.3899 Y29.9989 I0.0000 J1.0000
G01 X61.3810
G02 X62.9235 Y45.8502 I0.0087 J7.9998
G01 X89.7241 Y41.8216
G00 Z0.0000
G01 X92.6908 Y41.3757
G00 Z5.0000

(Nr. 15 Teil 6)
G00 X92.0361 Y13.5235
G00 Z0.5000
G01 Z-3.6000 F100
G01 X62.9235 Y9.1477 F500
G02 X61.3810 Y24.9989 I-1.5339 J7.8514
G01 X72.3899
G02 X73.3899 Y25.9989 I1.0000 J0.0000
G01 X128.3899
G02 X129.3899 Y24.9989 I0.0000 J-1.0000
G01 Y19.9989
G02 X128.5386 Y19.0100 I-1.0000 J0.0000
G01 X95.0027 Y13.9694
G00 Z0.0000
G01 X92.0361 Y13.5235
G00 Z-3.1000
G01 Z-7.2000 F100
G01 X62.9235 Y9.1477 F500
G02 X61.3810 Y24.9989 I-1.5339 J7.8514
G01 X72.3899
G02 X73.3899 Y25.9989 I1.0000 J0.0000
G01 X128.3899
G02 X129.3899 Y24.9989 I0.0000 J-1.0000
G01 Y19.9989
G02 X128.5386 Y19.0100 I-1.0000 J0.0000
G01 X95.0027 Y13.9694
G00 Z0.0000
G01 X92.0361 Y13.5235
G00 Z5.0000

(Nr. 16 Teil 8)
G00 X164.0990 Y86.6304
G00 Z0.5000
G01 Z-3.6000 F100
G01 X191.8545 F500
G02 X192.4264 Y86.4507 I0.0000 J-1.0000
G01 X217.3779 Y69.0565
G02 X217.7763 Y68.3122 I-0.6000 J-0.7999
G02 X145.5490 Y27.8942 I-45.9218 J-2.6818
G01 X121.2827 Y44.8100
G02 X120.8545 Y45.6304 I0.5719 J0.8204
G01 Y63.1571
G00 Z0.0000
G01 Y66.1571
G01 Z-3.6000 F100
G01 Y85.6304 F500
G02 X121.8545 Y86.6304 I1.0000 J0.0000
G01 X161.0990
G00 Z0.0000
G01 X164.0990
G00 Z-3.1000
G01 Z-7.2000 F100
G01 X191.8545 F500
G02 X192.4264 Y86.4507 I0.0000 J-1.0000
G01 X217.3779 Y69.0565
G02 X217.7763 Y68.3122 I-0.6000 J-0.7999
G02 X145.5490 Y27.8942 I-45.9218 J-2.6818
G01 X121.2827 Y44.8100
G02 X120.8545 Y45.6304 I0.5719 J0.8204
G01 Y63.1571
G00 Z0.0000
G01 Y66.1571
G00 Z-3.1000
G01 Z-7.2000 F100
G01 Y85.6304 F500
G02 X121.8545 Y86.6304 I1.0000 J0.0000
G01 X161.0990
G00 Z0.0000
G01 X164.0990
G00 Z5.0000

(Nr. 17 Teil 3)
G00 X81.8511 Y81.0704
G00 Z0.5000
G01 Z-3.6000 F100
G01 X104.5336 Y85.4898 F500
G02 X106.0975 Y69.6424 I1.5550 J-7.8474
G01 X95.0885
G02 X94.0885 Y68.6424 I-1.0000 J0.0000
G01 X54.0885
G02 X53.0885 Y69.6424 I0.0000 J1.0000
G01 Y74.6424
G02 X53.8972 Y75.6239 I1.0000 J0.0000
G01 X78.9065 Y80.4967
G00 Z0.0000
G01 X81.8511 Y81.0704
G00 Z-3.1000
G01 Z-7.2000 F100
G01 X104.5336 Y85.4898 F500
G02 X106.0975 Y69.6424 I1.5550 J-7.8474
G01 X95.0885
G02 X94.0885 Y68.6424 I-1.0000 J0.0000
G01 X54.0885
G02 X53.0885 Y69.6424 I0.0000 J1.0000
G01 Y74.6424
G02 X53.8972 Y75.6239 I1.0000 J0.0000
G01 X78.9065 Y80.4967
G00 Z0.0000
G01 X81.8511 Y81.0704
G00 Z5.0000
G00 X0.0000 Y0.0000

M05
M30
